#Title Collapsing World

#instrumentName Close Grand
T130 C#8:E8R8 C#8 D#8 B:E C#8 D#8 E8:F#8:D#8R8 C#8 D#8 B:E C#8 D#8 G#8:B8:C#8:E8R8 C#8 D#8 E C#8 D#8 F# C#8 D#8 E C#8 D#8 C#8:B8:E8R8 C#8 D#8 B:E C#8 D#8 G#8:E8:>D#8R8 <C#8 D#8 >D#:<F# C#8 D#8 G#8:>E8:<E8R8 C#8 D#8 E C#8 D#8 F# C#8 D#8 E C#8 D#8 G#8:>C#8:E8:G#8 G#16 G#16R8 G#8 G#8:<B8 >G#16 G#16R8 G#8 <F#8:>D#8:F#8 F#16 F#16R16 F#8R16 B8:<B8 >B16 B16 A8 A16 A16 C#8:E8:G#8:<G#8 >G#16 G#16R16 G#16 G#8 C#8 G#8R8 C#16R16 C#8R8 C#8 C#16R16 C#8 C#16R16 C#16R16 C#16 C#16 E.:>C#.:<C#.R8 >G#:<G#R8 E32 F#32R16 >F#8:<F#8R8 E32 F#32R8. D#16:>D#16R16 <E32 F#32R16 C#8R8 >E8:<E8 C#8 <B16R8. >C#8 <B16R16 >>D#8:<D#8R8 <G#.:>G#.:<F#.R. >B8:<B8R8 >G#:>C#:<C#R8 G#16R16 >G#.:<G#.R8 F#:B:>F#R8 <B16R16 >D#8.:<D#8.R16 A8.R16 G#8:>E8:<E8 G#8 A8 G#8R D#8R8 <F#.:>E.R. B8R8 E.:>C#.:<C#.R8 >G#:<G#R8 E32 F#32R16 >F#8:<F#8R8 E32 F#32R8. D#16:>D#16R16 <E32 F#32R16 C#8R8 >E8:<E8 C#8 <B16R8. >C#8 <B16R16 >>D#8:<D#8R8 <G#.:>G#.:<F#.R8 B8R8 >B8:<B8R8 >G#.:>C#.:<C#.R8 >G#.:<G#.R8 F#.:>F#.R8 D#.:<D#.R8 G#:>E:<ER2 D#8 <D#16R16 F#:>ER2 >B8.R16 <G#16 E16 D#16 C#16 E16 C#16 D#16 E16 F#16 E16 D#16 C#16 D#16 C#16 D#16 E16 E16 E16 D#16 C#16 C#16 C#16 D#16 E16 D#16 <G#16 B16 G#16 G#16 G#16 B16 G#16 >E16:G#16 C#16 D#16 E16 D#16 C#16 <G#16 >D#16 F#16 C#16 <F#16 G#16 >D#16 <G#16R16 G#16 >E16 <G#16 >D#16 <G#16 >C#16 D#16 C#16 <G#16 >D#16 E16 D#16 <G#16 B16 G#16 >D#16 E16 C#16:G#16 E16 D#16 C#16 E16 C#16 D#16 E16 F#16 E16 D#16 C#16 D#16 C#16 D#16 E16 E16 E16 D#16 C#16 C#16 C#16 D#16 E16 D#16 <G#16 B16 G#16 G#16 G#16 B16 G#16 >G#16 C#16 D#16 E16 D#16 C#16 <G#16 >D#16 F#16 C#16 <F#16 G#16 >D#16 <G#16R16 G#16 F#16:>E16 <G#16 >D#16 <G#16 >C#16 D#16 C#16 <G#16 >D#16 E16 D#16 <G#16 B16 >C#16 D#16 E16 <E8R8 C#8 D#8 B8:<B8:>E8R8 C#8 D#8 F#8:E8R8 C#8 D#8 B8:F#8R8 C#8 D#8 G#8:C#8:E8R8 C#8 D#8 E8:C#8R8 C#8 D#8 F#8R8 C#8 D#8 C#8:E8R8 C#8 D#8 E8R8 C#8 D#8 B8:<B8:>E8R8 C#8 D#8 F#8:E8R8 C#8 D#8 D#8:<B8:>E8R8 C#8 D#8 <G#8:>C#8:E8 <G#8 >C#8 D#8 E8:<G#8:>C#8 <G#8 >C#8 D#8 F#8 <G#8 >C#8 D#8 C#8:<G#8:>E8 <G#8 >C#8 D#8 G#.:C#.:E.R8 >G#.R8 D#.:<F#.:>F#.:<B.R8 B.:>D#.:<F#.R8 E.:G#.:>E.R. D#8.R16 <G#8.R2R16 B8.R16 G#.:E.:C#.:>C#.R8 G#.R8 D#8.:<B8.:>F#8.R16 B8.R16 D#8.:<A8.RR16 G#1&G#1:>E1&E1:<E1&E1 >C#.:<E.:G#.R8 >G#.R8 <F#2&F#8:>F#2&F#8:<B2&B8R. B.:E.:>E.R. D#8.R16 <G#2&G#8R8 B8.R16 G#.:E.:>C#.R8 G#.R8 D#.:<F#.:>F#.R8 D#8.:<B8.RR16 ER E D# F#1 G#&G#16:>C#&C#16R16 C#8R C#8 E32 F#32R16 <F#16:D#16R8. >E32 F#32RR16 E32 F#32R16 C#8R8 <E16R16 >C#16R16 <B8.R16 E16:>C#16R16 <B16R16 >D#8R8 <G#2&G#8R8 B8R8 G#.:E.:>C#.R8 G#.R8 <F#.:>F#.:<B.R8 F#.:B.:>D#.:<E.R8 B.:>E.:<E.R8 E8.R16 D#8R8 <B8:G#8:>F#8R. B&B16:F#&F#16R8. E16:>C#16R16 <B16:E16 >C#16 <E16:>E16 <B16 E16:>C#16 E16 <B16:>G#16 C#16 E16 <B16 >E16 E16 <B16 >E16 F#16:<F#16 B16 B16 F#16 >D#16:<F#16 B16 F#16 >D#16 <B16:>D#16 <F#16 >D#16 <B16 F#16 >D#16 <B16 F#16 >C#16:E16 <B16 B16 G#16 >E16 <B16 G#16 >E16 <B16 G#16 >E16 <B16 G#16:>D#16 <B16 B16 G#16 G#16 B16 B16 G#16 B16:>E32 F#32 <B16 G#16 B16 B16 G#16 >E32 F#32 <B16 G#16:B16 >E16 <B16 G#16 E16:>C#16 <B16 E16 E16 >C#32 E32 <E16 B16 E16 B16:>G#16 C#16 E16 <B16 >C#16 E16 <B16 >E16 F#16:D#16 <B16 B16 F#16 >D#16 <B16 F#16 >D#16 <B16:>D#16 <F#16 >D#16 <B16 F#16 >D#16 <B16 F#16 G#16:>E16 <B16 B16 G#16 >E16 <B16 G#16 >E16 <F#16:B16 G#16 >E16 <B16 G#16 >E16 <B16 G#16 >E16:<G#16:>F#16 <B16 G#16 >F#16 <B16 G#16 >E16 <B16 G#16 >E16 <B16 G#16 B16:>E16 <B16 G#16 >E16 <E16:>C#16 C#16 <E16:B16 >C#16 <E16:>E16 <B16 >E16 E16 <B16:>G#16 C#16 E16 <B16 >E16 E16 <B16 >E16 <F#16:>F#16 <B16 B16 F#16 >D#16 <B16 F#16 >D#16 <B16:>D#16 <F#16 >D#16 <B16 F#16 >D#16 <B16 F#16 G#16:>E16 <B16 B16 G#16 >E16 <B16 G#16 >E16 <B16 G#16 >E16 <B16 G#16:>D#16 E16 <B16 G#16 G#16 B16 B16 G#16 >E16 <B16 G#16 >E16 <B16 G#16 >E16 <B16 G#16:B16 >E16 <B16 G#16 E16:>C#16 <B16 E16:B16 >E16 <E16:>E16 <B16 E16 >E16 G#16:<B16 >C#16 E16 <B16 >E16 E16 <B16 >E16 <F#16:>F#16 <B16 B16 F#16 >D#16 <B16 F#16 >D#16 <B16:>D#16 <F#16 >D#16 <B16 F#16 >D#16 <B16 F#16 G#16:>E16 <B16 B16 G#16 >E16 <B16 G#16 >E16 <B16 G#16 >E16 <B16 G#16 >E16 <B16 G#16 >E16:F#16 <B16 G#16 B16 B16 G#16 >E16 <B16 G#16 >E16 <B16 G#16 >E16 <B16 G#16 >E16 <G#:ER8 G#8.R16 E8 G#8 E8.R16 G#8.R8. F#8:B8:D#8R16 >E8R16 B16R16 <E:B:>F#R8 G#R1R. <E16:G#16R16 <B16R16 B16R16 >F#16:G#16R16 E16R16 F#16R16 E16:G#16R16 F#16R16 <B16R16 >G#8 E16R16 <B16R16 >F#8:D#8:B8R16 >E8R16 B16R16 <B&B16:E&E16:>F#&F#16R16 <G#8:>E8R2 <G#16RR16 A16RR16 B16R8. <B8:>E8R8 <B16R16 >G#8 E16R16 <B16R16 >G#8 E16R16 <B16R16 >G#8R8 <B16R16 >F#8:D#8:B8R16 >E8R16 B16R16 <B8:E8:>F#8R8 <G#8 >G#.R <G#8R G#16R2R16 B8.:G#8.:E8.:>E8.R16 <E8R E2R. B:F#:D#:>D#R <F#1.&F#:E1.&E:B1.&B 
#NewTrack
#instrumentName Close Grand
T130 <<A8:>A8 G#8R. G#8R <B8 >G#8R. G#8R C#:R8 G#8R. G#8R. G#8R. G#8R <A8:>A8 G#8R. G#8R B8:<B8 >G#8R. G#8R C#:>C#:R8 <G#8R. G#8R. G#8R. G#8R <A8 >G#8 >C#8 D#8 E8 <G#8 >C#8 D#8 <<B8 >G#8 >C#8 D#8 E8 <G#8 >C#8 D#8 <<C#8:>C#8 G#8 >C#8 D#8 E8 <G#8 >C#8 D#8 F#8 <G#8 >C#8 D#8 E8 <G#8 >C#8 D#8 O1A8:>A8 >G#16 <A16 >>C#8 D#8 <G#16:E16:>E16R16 <G#8 >C#8 D#8 <<B8:<B8 >>G#16 <B16 >>C#8 D#8 <B16:G#16:>F#16R16 <G#16R16 G#16:>C#8 D#8 <C#8:<C#8 >G#16 C#16 >C#8 D#8 <G#16:E16:>E16R16 <G#8 >C#8 D#16 <G#8R16 G#16R16 C#8:>C#8 D#16:<C#16R16 G#16:E16:>E16R16 <G#8 >C#8 D#8 O1A8:>A8 >G#16 <A16 >>C#8 D#8 <G#16:E16:>E16R16 <G#16R16 E16:G#16:>C#8 D#8 <<B8:<B8 >>G#16 <B16 >>C#8 D#8 <B16:G#16:>F#16R16 C#16R16 C#8 <G#16:>D#8 <C#8:<C#8 >G#16 C#16 >C#8 D#8 <G#16:E16:>E16R16 <G#8 >C#8 <D#16:>D#16 <G#8R16 G#16R16 >C#16R16 D#16:<C#16R16 G#16:E16:>E16R16 <G#8 >C#8 D#8 O1A8:>A8 >G#16 <A16 >>C#8 D#8 <G#16:E16:>E16R16 <G#8 >C#8 D#8 <<B8:<B8 >>G#16 <B16 >>C#8 D#8 <B16:G#16:>F#16R16 <G#16R16 G#16:>C#8 D#8 <C#8:<C#8 >G#16 C#16 >C#8 D#8 <G#16:E16:>E16R16 <G#8 >C#8 D#16 <G#8R16 G#16R16 C#8:>C#8 D#16:<C#16R16 G#16:E16:>E16R16 <G#8 >C#8 D#8 O1A8:>A8 >G#16 <A16 >>C#8 D#8 <G#16:E16:>E16R16 <G#16R16 E16:G#16:>C#8 D#8 <<B8:<B8 >>G#16 <B16 >>C#8 D#8 <B16:G#16:>F#16R16 C#16R16 C#8 <G#16:>D#8 <C#8:<C#8 >G#16 C#16 >C#8 D#8 <G#16:E16:>E16R16 <G#8 >C#8 <C#16 G#8R16 G#16R16 >C#16R16 D#16:<C#16R16 G#16:E16:>E16R16 <G#8 >C#8 D#8 O1A8:>A8 >G#16 <A16 >>C#8 D#8 <G#16:E16:>E16R16 <G#8 >C#8 D#8 <<B8:<B8 >>G#16 <B16 >>C#8 D#8 <B16:G#16:>F#16R16 <G#16R16 G#16:>C#8 D#8 <C#8:<C#8 >G#16 C#16 >C#8 D#8 <G#16:E16:>E16R16 <G#8 >C#8 D#16 <G#8R16 G#16R16 C#8:>C#8 D#16:<C#16R16 G#16:E16:>E16R16 <G#8 >C#8 D#8 O1A8:>A8 >G#16 <A16 >>C#8 D#8 <G#16:E16:>E16R16 <G#16R16 E16:G#16:>C#8 D#8 <<B8:<B8 >>G#16 <B16 >>C#8 D#8 <B16:G#16:>F#16R16 C#16R16 C#8 <G#16:>D#8 <C#8:<C#8 >G#16 C#16 >C#8 D#8 <G#16:E16:>E16R16 <G#8 >C#8 <C#16 G#8R16 G#16R16 >C#16R16 D#16:<C#16R16 G#16:E16:>E16R16 <G#8 >C#8 D#8 <<A16:>E16R16 G#16 <A16R8 A16R16 >G#16:E16R16 G#16RR16 F#16:<B16R16 >G#16 <B16R8 B16R16 >B16:G#16R16 G#16R16 <B16R8. >G#16:C#16R16 G#16 C#16R8 C#16R16 G#16R16 G#16R8. C#16 <C#8R16 >C#16:G#16R16 C#16R16 C#16R16 G#16:C#16R16 G#16RR16 <A16:>E16R16 G#16 <A16R8 A16R16 >G#16:E16R16 G#8R F#16:<B16R16 >G#16 <B16R8 B16R16 B16:>D#16R16 <B16:>G#16R16 <B16R16 B16R16 >C#16R16 C#16R16 C#16R16 C#16R16 C#16R16 C#16R16 C#16R16 C#16 <C#16 >C#16R16 C#16R16 C#16R16 C#16R16 C#16R16 C#16R16 C#16R16 C#16R16 <A1:>A1 B1:<B1 >C#1.&C#8:B1.&B8R. A1:E1:<A1 >F#1:B1:<B1 >G#1&G#1:C#1&C#1:B1&B1 <A >E >C#2 <<B >F# >D#2 <C# G# >E2R1 <<A >E >C#2 <<B >F# >D#2 <B:C# G#R1. <A8R16 A8R16 A16R16 >E8:A8:C#8 <A8.R8. B8R16 B8R16 B16R16 >F#16:B16R16 <B16R16 >B16:F#16R16 <B16R16 >G#8:C#8R16 C#8R16 C#16R16 B:G#R8 <C#16 >C#8.R8 <C#16R16 >C#16R16 G#2:B2:E2 <A8R16 A8R16 A16R16 >E8:A8:C#8 <A16R16 >E8:A8:C#8R8 <B8R16 B16R8 B16R16 >F#16:B16R16 <B16R8. B16 >>D#16 <G#8:B8:C#8R16 G#16 C#8R8 B:G#R8 <C#16 >C#16R8 C#8R8 C#16R16 G#8.:B8.:E8.R16 <B8R8 <A8:>A8R16 A8R16 A16R16 >E&E16:A&A16:C#&C#16R8. <B8:<B8R16 >B8R16 B16R16 >B8.:F#8.R16 B8.:F#8.R16 C#:<C#R8 >C#16R16 G#8.:B8.:E8.R8. <C#16 >C#8.R8 <C#16R16 >C#16R16 G#8.:B8.:E8.R16 <B8.R16 <A8:>A8R16 A8R16 A16R16 >C#8:A8.:E8.R16 E8:A8:C#8R8 <B8:<B8R16 >B8R16 B16R16 >B:F#&F#16R16 <B16R16 >E:<E B16 E8. B8.:>E8.R16 E8 <ER8 E16R16 E16R16 >E8.:<B8.R16 E16R8. <A8:>A8R16 A8R16 A16R16 >A&A16:E&E16R8. <B8:<B8R16 >B8R16 B16R16 >B8.:F#8.R16 B8.:F#8.R16 C#:<C#R8 >C#16R16 E8.:G#8.:BR8 <C#16 >C#8.R8 <C#16R16 >C#16R16 G#8.:B8.:E8.R16 <B8.R16 <A8:>A8R16 A8R16 A16R16 >C#8:A8.:E8.R16 E8:A8:C#8R8 <B8:<B8R16 >B8R16 B16R16 >B:F#&F#16R16 <B16R16 >E:<E B16 E16R8 B8.:>E8.R16 E8 <ER8 E16R16 E16R16 >E&E16:<B&B16R8. A1&A8:>A1&A8R. F#.:B.:<B.R8 >G#&G#16:C#&C#16:B&B16R16 >F#16R16 E16R16 <B16R16 >F#16R16 <B8.R16 >F#16R16 E16R16 <B16R16 B16R16 B16R16 >E16R16 <B16R16 E2.&E8:<A2.&A8:>A2.&A8R2R8 F#.:<B:>B.R8 G#.:C#.:B.R8 B16R16 >E16R16 <B16R16 >E16R8. E16R16 <B8R8 >E16R16 <B16R8. B16R16 E2&E8:<A2&A8:>A2&A8.R2.R16 F#&F#16:<B&B16:>B&B16R8. G#16:C#16:B16R16 B16R8. >E8 <B16R16 B16R16 >E16R16 <B16R8. >E16R16 <B16R8. B16R16 B16R16 >E16R16 <B16R16 <A16:>A16R16 B16R8. B8R1 F#:<B:>BR <B1.&B:E1.&E:>E1.&E 
#NewTrack
#instrumentName Grand Piano
# T130 R1R1R1R1R1R1R1R1R1R1R1R1R1R1R1R1R1R1R1R1R1R1R1R1R1R1R1R. D#32 F#32 G#64:R64 B32 >C#32 E32 F#32 G#32 B32 >C#64:R64 E32 F#32 G#32 <B8.R1R1R1R1R1R1R1R1R1R1R1R1R1R1R1R1R1R1R1R1R1R1R1R1R1R1R1R1R1R1R1R1R1R1R1R1R1R1R1R1R1R1R1R1R1R1R1R1R1R1R1R1R1R1R1R1R1R1R1R1R1R1R1R1R1R1R1R1R1R1R16 E1.&E 