#Title there is a reason
T134>>C#16D#16E8.E8.D#C#<G#2.&G#16.R8R32G#16A16B8.B8.AG#G#2.&G#8:E2.&E8L8C#<B>C#EF#4F#4E<B>C#.:<C#.>F#.:<F#.>G#4&G#16.&G#64:<G#4&G#16.&G#64RR64>C#16D#16E2.<B4:R64>E.&E32.:R64G#.&G#32:R.R64D#2.&D#.&D#64:F#2.&F#.&F#64:<B2.&B.&B64RR32.>F#F#EF#.E.L4F#EF#G#F#L8EF#EF#.G#.L4F#EC#8C#.&C#16.&C#64L8RR64F#F#EF#.E.L4F#EF#G#C#2<B8B.&B16.&B64R1L8RR64>F#:C#F#:C#E:<B>F#.:C#.E.:<B.L4>F#:C#E:<B>F#:C#G#:D#F#:C#L8EF#EF#.:C#.G#.:D#.C#4.<B4B>C#F#:C#G#:D#RC#C#C#EEF#L4G#C#C#2&C#8<B:>F#:<F#>E8F#.:D#.<B8>D#.C#8C#2&C#16.R2R32<A:>C#:<E>C#E:C#C#8EG#F#.:D#.E:C#F#:D#G#:EF#<B8:G#8B:G#>C#.:<G#.L8E<B>C#ERL4G#.:E.E:<G#>D#<BG#L2>E:G#:<AL4>A:>C#:<E>C#E:C#C#8EG#F#.:D#.<B>C#B:G#G#:EF#8EF#D:F#:<GL8>EF#EL4F#L8RF#4:<A4>EF#EL4C#:G#:<AB8>C#1.&C#.F#:<F#L8>F#.:>C#.:<C#.F#.:C#.F#:C#F#.:C#.E.:C#.E:C#F#.:D.A.:D.B:DL4A:>C#:<DRL8E.A.:E.B:E>C#.:<E.B.:E.A:EE.:B.:<B.>G#.E<B4.&B16.&B64:>F#4.&F#16.&F#64:<G#4.&G#16.&G#64L4RR64>F#:DE:C#F#:DA:F#F#:C#F#:C#C#<A.:B.:>D#.:<D#.>G#8:<G#8>G#2:<G#2>C#.:F.:<F.L8>F:>C#:<C#C#4:>C#2:<F2F#.:>C#.:<C#.F#.:C#.F#:C#F#.:C#.E.:C#.E:C#F#.:D.A.:D.B:DL4A:>C#:<DRL8F#.:<B.>A.:E.B:E>C#.:<E.>E.:<E.B:E>C#.:<E.B.:E.A:EL4F#:<B>E:<BL1>D:F#:<B>E2&E8.&E32:G#2&G#8.&G#32:C#2&C#8.&C#32R8R32A&A8B2.>C#8C#&C#16&C#64RL8RR32.<F#:C#F#EF#.:C#.E.L4F#E:C#F#:D#G#:EF#:C#L8EF#EF#.:C#.G#.:C#.L4F#E:<B>C#:<G#B:G#>C#2:<G#2>G#8C#1&C#.&C#16:G#1&G#.&G#16:<G#1&G#.&G#16R2.L8R.>F#G#.C#.C#C#.L16D#R8<F#4F#EL8F#EF#.L16G#R8F#4F#EL8F#EF#.L16G#R8F#4F#EL8F#EF#.G#16RC#4<BR4.>C#F#G#4C#R4.EF#G#4C#D#C#L4R.F#.E8F#&F#16.&F#64R8R64D#.C#8L2<G#&G#16.:>C#&C#16.:<E&E16.RR32L4>A:>C#:<E>C#E:C#C#8EG#F#.:D#.E:C#F#:D#G#:EF#<B8:G#8B:G#>C#.:<G#.L8E.:G#.:C#.L16E:G#:C#L8R>BB>C#L4<G#:>C#:<EL8<E.:G#.:C#.L16E:G#:C#L8R>BB>C#<G#4:E4L2<E:G#:<AL4>A:>C#:<E>C#E:C#C#8EG#F#.:D#.<B>C#B:G#G#:EF#8EF#D:F#:<GL8>EF#EL4F#L8RF#4:<A4>EF#EF#.E.G#1&G#16&G#64R2.R32.L4C#:F#:<AL8>F#.:>C#.:<C#.F#.:C#.F#:C#F#.:C#.E.:C#.E:C#F#.:D.A.:D.B:DL4A:>C#:<DRL8E.A.:E.B:E>C#.:<E.B.:E.A:EE.:B.:<B.>G#.E<B4.&B16.&B64:>F#4.&F#16.&F#64:<G#4.&G#16.&G#64L4RR64>F#:DE:C#F#:DA:F#F#:C#F#:C#C#<B.:>D#.:<A.>G#8:<G#8>G#2:<G#2>F.:C#.L8F:>C#:<C#L4F:>C#:<C#L16<C#FG#>C#L8F#.:>C#.:<C#.F#.:C#.F#:C#F#.:C#.E.:C#.E:C#F#.:D.A.:D.B:DL4A:>C#:<DRL8F#.:<B.>A.:E.B:E>C#.:<E.>E.:<E.B:E>C#.:<E.B.:E.A:EL4F#:<B>E:<BL1>D:F#:<B>E2&E8.&E32:G#2&G#8.&G#32:C#2&C#8.&C#32R8R32A2.&A16.L8RR32C#G#2.F#:C#C#1&C#16&C#64:F#1&F#16&F#64:RL4<E.:G#.:C#.F#.E8:C#8L2E:C#F#&F#8:D#&D#8L4G#.:B.:E.G#.:>C#.:<E.G#.:E.L8G#:EG#:EG#:EG#:EG#:EL4G#:EG.:E.A2:F#2>DL8C#R<BA2L4A.:F#.G.:E.L8F#:DF#4:D4<B>C#F#>DAR4.EEDE.D.L4E.D<B>DL8REEDE.D.L4<B.>DE.&E16.&E64L8RR64E:<B>E:<B>DE.:<B.>D.:<B.L4>E:<B>D:<A>E:C#A:EE2.&E16.:C#2.&C#16.R8R32D8E:<BL8>DE4:<B4>DE<B1&B16&B64:>D#1&D#16&D#64:L4F#.F#B>C#F#2E.&E16.&E64:R<EL8E.:B.:<B.>E.:<B.>E:<B>E.:<B.>D.:<B.>D:<B>E.:C.G.:C.A:CL2E:B:CL8D.:<B.>G.:D.AG.:B.:D.A.GF#.:A.:<B.>G.DE4D4L1C:E:<A>D2&D8.&D32:F#2&F#8.&F#32:<B2&B8.&B32R8R32>G8E:G:CF#2&F#8.&F#32:A2&A8.&A32:D2&D8.&D32L8RR32BB2.&B.&B64R1L4RR32.C#:F#:<F#>F#:>C#:<C#F#:B:<BL8>F#.:>C#.:<C#.F#.:C#.F#:C#C#.:F#.:<F#.>C#.:E.:<E.>C#:E:<E>D.:F#.:<F#.>A.:<A.>B:<BL2>A:>C#:<C#L8C#.:F#.:<F#.>A.:<A.>B:<B>A.:>C#.:<C#.B.:<B.>A:<A>G#.:B.:<B.>A.:<A.>E:<EB4.&B16.&B64:>F#4.&F#16.&F#64:<F#4.&F#16.&F#64L4RR64>D:F#:<F#>E:<E>F#:<F#>E:A:<A>C#:F#:<F#>C#:F#:<F#>C#:<C#B.:>D#.:<D#.L8>D#:G#:<G#L2>D#:G#:<G#L4>F.:G#.:>D.:<C#.>C#8<F:G#:>C#:<C#L16<C#FG#>C#L8F#.:>C#.:<C#.F#.:C#.F#:C#C#.:F#.:<F#.>C#.:E.:<E.>C#:E:<E>D.:F#.:<F#.>A.:<A.>B:<BL2>A:>C#:<C#L8<B.:>F#.:<F#.>A.:<A.>B:<B>A.:>C#.:<C#.>E.:<E.B:<B>A.:>C#.:<C#.B.:<B.>>C#:<C#L4C#:F#:<F#>C#:E:<EL1>D:F#:<F#>E2&E8.&E32:G#2&G#8.&G#32:<G#2&G#8.&G#32R8R32>A2.&A16.:<A2.&A16.L8RR32>C#:<C#>G#2&G#.&G#32:<G#2&G#.&G#32RR32>F#:<F#>F#1:<F#1>B2&B.&B32:<B2&B.&B32RR32>>C#:<C#>C#1.&C#4.&C#32:<C#2C#4<AB2&BA4G#4L1A:>C#:<F#G#:>C#:<EA.:>C#.:<E.>E2C#:F#:<AB:>E:<G#A2.&A8.&A64:F#2.&F#8.&F#64
#NewTrack
L8RC#G#>EC#L4E.<E:<AL8AB>EG#2<B>G#BCG#>C4<C#1&C#<<F#>C#AB2&B<G#.>B.>E2&E<<A>AB>E2&E<<B1>B4:R64>E.&E32.:R64F#.&F#32R.R32.E2<<A>AB>E2&E<<F#4.&F#16.&F#64:R4.>F#2&F#16.:R>C#2<<B4.>B4&B16.&B64:RL4>EF#:C#E:F#:<BC#8G#8>G#.<<A>B:F#>C#:<G#>E.:<B.L8<F#>F#>C#E4F#4L2E:F#:<B<B8>>E:G#:<BC#.&C#8.&C#64:L8RG#>C#ER<G#>C#E<<A2.&A.&A64:R>EA>C#R<EA>C#<<F#2.&F#.&F#64:R>C#F#ARC#F#A<G#2.&G#.&G#64:R>D#G#BRD#G#BC#2.&C#.&C#64:RG#>C#ER<G#>C#E<<A2.&A.&A64:R>EA>C#R<EA>C#L2<<F#:<F#>B:<BO4C#4.&C#16.&C#64:<C#8C#4&C#16.&C#64:L8RG#>F#FC#<G#F<<A1.&A4.&A32:>A1.&A4.&A32:R2R>AB>E1&EO1G#2.&G#.&G#64:>G#2.&G#.&G#64:R>D#F#B2&B<G#>G#L4B>EF#<<C#2.&C#8.&C#64:>C#2.&C#8.&C#64:RE8G#8B2ED#<BG#<A1.&A.&A32:>A1.&A.&A32:R2L8R>AB>E1&EO1G#2.&G#.&G#64:>G#2.&G#.&G#64:R>D#F#B2&B16.RR32D#F#BF#D#L4<B<G.&G16.&G64:>G.G.&G16.&G64:R8>G.<<F#2&F#16.:>F#2F#&F#16.&F#64:R8>F#>D8L1<G#&G#&G#8:>C#&C#&C#8:<C#&C#&C#8<F#2.&F#8.&F#64:>F#4.F#4&F#16.&F#64:R8L4>F#:C#<F#<D2.&D8.&D64:>D.D&D16.&D64:R8>D:<AD<A2.&A8.&A64:>A.A&A16.&A64:R8>A:E<A<E2.&E8.&E64:>E.E&E16.&E64:R8>E:<BE<D2.&D8.&D64:>D.D&D16.&D64:R8>D:<AD<C#2.&C#8.&C#64:>C#.C#&C#16.&C#64:R8>C#:<G#C#<D#2.&D#8.&D#64:>D#.D#&D#16.&D#64:R8B:G#D#<C#2.&C#8.&C#64:>C#.L8C#>FG#>C#4O2F#2.&F#.&F#64:>F#4.F#4&F#16.&F#64:RL4>F#:C#<F#<D2.&D8.&D64:>D.D&D16.&D64:R8>D:<AD<E2.&E8.&E64:>E.E&E16.&E64:R8>E:<BE<C#2.&C#8.&C#64:>C#.C#&C#16.&C#64:R8>C#:<G#C#<<B2.&B8.&B64:>B.B&B16.&B64:R8>B:F#<BC#2.&C#8.&C#64:>C#.C#&C#16.&C#64:R8>C#:<G#C#<D2.&D8.&D64:>D.D&D16.&D64:R8>D:<ADL8E:<E>E:<E>E:<E>E:<E>E:<E>E:<E>E:<E>E:<E>F#:<F#>F#:<F#>F#:<F#>F#:<F#>F#:<F#>F#:<F#>F#:<F#>F#:<F#>F#:<F#>F#:<F#>F#:<F#>F#:<F#L2>F#:<F#>C#.&C#8.&C#64:L8RG#>C#ER<G#>C#E<<A2.&A.&A64:R>EA>C#R<EA>C#<<F#2.&F#.&F#64:R>C#F#ARC#F#A<G#2.&G#.&G#64:R>D#G#BRD#G#BC#2.&C#.&C#64:RG#>C#ER<G#>C#E<<A2.&A.&A64:R>EA>C#R<EA>C#<<F#2.&F#.&F#64:R>C#F#ARC#F#AL4C#:<C#R2L8R>C#4:<C#4>C#>C#:<G#C#>C#:<G#C#>C#:<G#<A4:<A4>A>A:E<A>A:E<A>A:E<F#4:<F#4>F#>F#:C#<F#>F#:C#<F#>F#:C#L4<B:<BL8>B>B4:F#<B>B:F#<B>B:F#L4C#:<C#L8>C#>C#4:<G#C#>C#:<G#C#>C#:<G#<A4:<A4>A>A:E<A>A:E<A>A:E<F#4:<F#4>F#>F#:C#L4<BL8BL4>B.:F#.L8<B>C#C#4:<C#4C#>C#<C#A.:<A.>A.:<A.>A:<A>A:<A>A>A4:E4<A.:<A.>A.:<A.>A:<A>A:<A>A>A:EG#4<G#>G#:D#<G#RG#>D#G#<G#>G#<G#G#:<G#R>G#>D#G#C#.:<C#.>C#.:<C#.>C#:<C#R>C#:<C#>C#4:<C#4>C#.:<C#.>C#.:<C#.>C#:<C#R>C#:<C#>C#4:<C#4A.:<A.>A.:<A.>A:<A>A:<A>A>A4:E4<A.:<A.>A.:<A.>A:<A>A:<A>A>A:EG#4<G#>G#:D#<G#RG#>D#G#<G#4:<G#4>>G#<G#RG#>D#G#<G:<G>GB>GL4RL8<G:<G>F#4:<F#4>F#>C#F#<F#:<F#L4R>>C#:<C#L16C#:R32.>C#<C#>C#<C#>C#<C#>C#<C#>C#<C#>C#<C#>C#<C#>C#<C#>C#<C#>C#<C#>C#R2L8<F#.:<F#.>>F#.:C#.F#:C#<F#>C#F#4<D.:<D.>>D.:<A.>D:<ADA>D4<A.:<A.>>A.:E.A:E<A>EA4<E.:<E.>>E.:<B.>E:<BEB>E4<D.:<D.>>D.:<A.>D:<ADA>D4<C#.:<C#.>>C#.:<G#.>C#:<G#C#G#>C#4<D#.:<D#.>>D#.:<B.>D#:<BD#B>D#4<C#.:<C#.>>C#.:<G#.>C#:<G#L16C#FG#>C#R4L8<F#.:<F#.>>F#.:C#.F#:C#<F#>C#F#4<D.:<D.>>D.:<A.>D:<ADA>D4<E.:<E.>>E.:<B.>E:<BEB>E4<C#.:<C#.>>C#.:<G#.>C#:<G#C#G#>C#4<<B.>B.:F#.B:F#<B>F#B4C#.>C#.:<G#.>C#:<G#C#G#>C#4<D.>D.:<A.>D:<ADA>D4E:<E>E:<E>E:<E>E:<E>E:<E>E:<E>E:<E>E:<EA4:<A4>A:<A>B:<BL4RL8>B:<B>>C#4.:<C#4.>C#:<C#B2&B:<B2&B>A4:<A4>A:<A>B:<BR>B:<B>>C#1&C#4:<C#1&C#4G4:<G4>G:<G>A:<AR>A:<A>A:<A>B4:<B4R>B:<B>B:<B>B:<B>B:<B>B:<B>B:<B>G4:<G4>G:<G>A:<AR>A:<A>A:<A>B4:<B4>B:<B>B:<B>B:<BR>B:<B>B:<B>B:<B>G4:<G4>>G:D<GRG>G:D<G>D4:<D4>A:F#DRDA:F#D<A4:<A4>>A:E<ARA>A:E<AB4:<B4>>B:F#<BRA>A:E<AG4:<G4>>G:D<GRG>G:D<GF#4:<F#4>>F#:D<F#RF#>F#:D<F#E4:<E4>E>E:<BRE>E:<BEA4:<A4>>A:E<ARA>A:E<AB.:<B.>B.:<B.>B:<B>B:<B>B:<B>B:<B>B:<B>B1:<B1>E2.&E.&E64:>E2.&E.&E64:L4R>E:G:<B>E:G:<B>E:G:<B<C2.&C8.&C64:>C2.&C8.&C64:R>C:E:<G>C:E:<G>C:E:<G<<G2.&G8.&G64:>G2.&G8.&G64:R>>D:G:<B>D:G:<B>D:G:<B<<B2.&B8.&B64:>B2.&B8.&B64:R>>F#:B:DF#:B:DF#:B:DO1A2.&A8.&A64:>A2.&A8.&A64:R>>C:E:<A>C:E:<A>C:E:<A<<B2.&B8.&B64:>B2.&B8.&B64:R>>D:F#:<B>D:F#:<B>D:F#:<B<C2.&C8.&C64:>C2.&C8.&C64:R>E:G:CE:G:CE:G:C<<D2.&D8.&D64:>D2.&D8.&D64:R>F#:A:DF#:A:DL1F#&F#4:A&A4:D&D4L16O1E>E<E>E<E>E<E>E<E>E<E>E<E>E<E>E<E>E<E>E<E>E<E>E<E>E<E>E<E>E<E>E<F#2.&F#8.&F#64:L4>F#>F#:C#L8<F#>C#F#C#<<D2.&D.&D64:L4>D>D:<AL8DA>D<A<A2.&A.&A64:L4>A>A:EL8<A>EAE<<E2.&E.&E64:L4>E>E:<BL8EB>E<B<D2.&D.&D64:L4>D>D:<AL8DA>D<A<C#2.&C#.&C#64:L4>C#>C#:<G#L8C#G#>C#<G#<D#2.&D#.&D#64:L4>D#>D#:<BL8D#B>D#F#<<C#2.&C#.&C#64:L4>C#>C#:<G#L16C#FG#>C#R4<<F#2.&F#8.&F#64:>F#4L8>F#:C#<F#>F#:C#<F#>F#4:C#4<<D2.&D.&D64:>D4>D:<AD>D:<AD>D4:<A4<E2.&E.&E64:>E4>E:<BE>E:<BEL4>E:<B<C#.&C#16.&C#64:>C#.&C#16.&C#64:R>F#:C#<<C#.&C#16.&C#64:>C#.&C#16.&C#64:R>E:C#<<B2.&B8.&B64:>BL8>B:F#<B>B:F#<B>B4:F#4<C#2.&C#.&C#64:>C#4>C#:<G#C#>C#:<G#C#>C#4:<G#4<D2.&D.&D64:>D4>D:<AD>D:<AD>D4:<A4<E2.&E.&E64:>E4>E:<BE>E:<BE>E4:<B4<<F#2.&F#.&F#64:>F#4>F#:C#<F#>F#:C#<F#>F#4:C#4<<G#2.&G#.&G#64:>G#2.&G#.&G#64:R4>B:G#<B>B:G#<B>B4:G#4<<A2.&A.&A64:>A4>A:E<A>A:E<A>A4:E4<B:<B>B:<B>B:<B>B:<B>B:<B>B:<B>B:<BRL1>>AEC#.E2F#EF#2.&F#8.&F#64