#Title This Game

#trackName This Game
#NewTrack
#trackName Acoustic Piano
L8>E.:G#.:C#.D#.EF#.B.AG#.:C#.C#.EF#.B.AE.:G#.:<B.B.>EE.F#.G#G#.:C#.F#.C#2D#16E16L4C#.:F#.:<A.L16>ED#<B4.>F#G#L4A.G#16F#16G#.:<B.L8>G#G#.:C#.F#.C#4C#D#EE.D#.EL4A:<A>G#:<G#L2C#:<G#:>E:<EL8>F#.:<F#.>B.:<B.>A:<A>G#2:<G#2>F#.B.AG#2:<B2>G#.:<B.>>C#.<G#C#.:B.:F#.A#.F#2C#16D#16C#.:E.:<A.>C#.G#4:C#4F#:C#F#:C#G#:C#F#4.:<B4.O6E16D#16<F#2<C#:<A>C#:<A>C#:<A>D#:<A>D#:<A>D#:<A>E:<A>E:<AL4>E:<A>G#:C#A:C#B:C#F#:B:<BL8>D#L4F#>D#8:<D#8>F#:<F#L1B:>B:F#L8E.D#.<A4>C#D#EE.D#.<E4B>D#EE.D#.<G#4>C#D#EE.D#.<F#4>>C#:<C#>D#:<D#>E:<E>E.:<E.>D#.:<D#.>E4:<E4B:<B>>D#:<D#>E:<E>E.:<E.>D#.:<D#.>E4:<E4B:<B>>D#:<D#>E:<E>E.:<E.>D#.:<D#.>E4:<E4B:<B>>D#:<D#>E:<E>G#.:<G#.>A.:<A.L4>F#:<F#L8>E:<EL4>E:<EL8E.D#.F#4ED#L16E<B2.&B8.>D#<BL8>E.D#.F#4ED#EG#.A.F#4E<B4>E.D#.F#4ED#L16E<B4.&B>ED#L8<B.A.B>E.D#.F#4ED#EG#.A.G#4F#F#4RF#:C#F#:C#E16:C#16F#:C#F#:C#E16:C#16G#:C#E:C#RF#:C#F#:C#E16:C#16F#:C#F#:C#E16:C#16F#:C#B:C#RF#:C#F#:C#E16:C#16F#:C#F#:C#E16:C#16G#:C#E:C#E.:C#.E.:C#.E.:C#.E.:C#.F#:<F#>G#:<G#R>F#:C#F#:C#E16:C#16F#:C#F#:C#E16:C#16G#:C#E:C#RF#:C#F#:C#E16:C#16F#:C#F#:C#E16:C#16F#:C#B:C#RF#:C#F#:C#G#16:C#16F#:C#F#:C#E16:C#16G#:C#E:C#C#.:<A.>C#.:<A.>C#4:<A4>C#:<E>E:<E>F#:<F#L4>C.:G.:E.L16>E:G:CE:G:CL8E:G:C<G>DCL4<F#.:B.:D.L16A:DG:DL4A.:D.L8GA4:E4A:EB16G.:E.F#GL16AD4&DGF#D<B>D<GB>C<G>CD<GL4>C:E:<GL16>>BGE<BGED:CL8E.C:F#.G:CG4&G16:D4&D16L16RF#EF#4&F#:D4&DRL8GE.:A.:C.E.:A.:C.E:CE:CE:<E>E:<E>E:<E>D#.:<D#.>E.:<E.>F#:<F#>>D.:<D.>C.:<C.A:<A>B2:<B2L16>>D<AF#DAF#D<AL2>E:G:B:<BL8>A.:<A.>>D.:<D.>C:<CL2E:G:B:<BL8>A.:<A.>>D.:<D.>C:<CL2G:E:B:<BL8>G.:<G.>A.:<A.>B:<B>B.:<B.>A.:<A.>E2&E:<E2&EL4>A.:C.G8D&D16:<A&A16L16R>ABL4G&G16:>C&C16:<D&D16L16RB:DA:DB4&B:D4&DRL8AB.A.E4E:<E>F#:<F#>G:<GL4>G.:<G.>F#8:<F#8>>C:<CB:<BL2>E:G:B:<BL8>A.:<A.>>D.:<D.>C:<CL2E:G:B:<BL8>A.:<A.>>D.:<D.>C:<CL2G:<B:>B:EL8B.:<B.>>E.:<E.B:<B>>D.:<D.>C#.:<C#.A2:<A2>E16F#16G.:C.E.B4:D4AABA.:D.G.L4F#:DGL8F#F#.:C.A.:C.G2&G:C2&CL4<A&A16:>F#&F#16:D&D16R16F#.:A.:D.L8A:>D:<F#G16F#16G.E.B4AA>D<B2A.G.>DE.:<E.>D#.:<D#.>E4:<E4B:<B>>D#:<D#>E:<E>E.:<E.>D#.:<D#.>E4:<E4B:<B>>D#:<D#>E:<E>E.:<E.>D#.:<D#.>E4:<E4B:<B>>D#:<D#>E:<E>G#.:<G#.>A.:<A.L4>F#:<F#L8>E:<EL4>E:<EL8E.C#.F#4ED#L16E<B2.&B8.>D#<BL8>E.D#.F#4ED#:<B>EG#.A.F#4E<B4>E.D#.F#4ED#E16L4<B.R16>E.:B.:<B.L8>D#:<B>D#16<B16>E.:<B.>D#.F#4ED#EG#.A.G#4F#F#4&F#16R16F#:C#F#:C#E16:C#16F#:C#F#:C#E16:C#16G#:C#E.:C#.R16F#:C#F#:C#E16:C#16F#:C#F#:C#E16:C#16F#:C#B.:C#.R16F#:C#F#:C#E16:C#16F#:C#F#:C#E16:C#16G#:C#E:C#E.:C#.E.:C#.E.:C#.E.:C#.F#:<F#>G#.:<G#.R16>F#:C#F#:C#E16:C#16F#:C#F#:C#E16:C#16G#:C#E.:C#.R16F#:C#F#:C#E16:C#16F#:C#F#:C#E16:C#16F#:C#B.:C#.R16F#:C#F#:C#G#16:C#16F#:C#F#:C#E16:C#16G#:C#E:C#C#.:<A.>C#.:<A.>C#4:<A4>C#:<E>E:<E>F#:<F#L2>E:C:G:<GL8>>C:E:G:<GG>DCL4<F#&F#16:B&B16:D&D16L16RA:DG:DA4&A:D4&DRL8GA4:E4A:EB16G.:E.F#GL16AD2&DD<GB>C<G>CD<GL2>C:E:<GL8>E.:C.F#.:C.G:CG4&G16:D4&D16L16RF#EF#4&F#:D4&DRL8GE.:A.:C.E.:A.:C.E:CE:CE:<E>E:<E>E:<E>D#.:<D#.E:>E.F#:<F#>>D.:<D.>C.:<C.A:<A>B4:<B4L16>>GF#D<AGF#D<AGF#D<AL2>>E:<B:>B:GL8A.:<A.>>D.:<D.>C:<CL2G:E:B:<BL8>A.:<A.>>D.:<D.>C:<CL2E:G:B:<BL8>G.:<G.>A.:<A.>B:<B>B.:<B.>A.:<A.>E2&E:<E2&E>A4&A16:C4&C16R16GD4&D16:<A4&A16L16R>ABL4D&D16:>C&C16:<G&G16L16RB:DA:DB4&B:D4&DRL8AB.A.E4E:<E>F#:<F#>G:<G>G4&G16:<G4&G16R16>F#:<F#L4>>C:<CB:<BL2>G:<B:>B:EL8A.:<A.>>D.:<D.>C:<CL2G:E:B:<BL8>A.:<A.>>D.:<D.>C:<CL2<B:>G:B:EL8B.:<B.>>E.:<E.B:<B>>D.:<D.>C#.:<C#.A2:<A2>E16F#16G.:C.E.B4:D4AABA.:D.G.L4F#:DGL8F#F#.:C.A.:C.G2&G:C2&CL4D&D16:F#&F#16:<A&A16R16>D.:A.:F#.L8A:>D:<F#G16F#16G.E.B4AA>D<B2A.G.>DL4<B:<B>>E:<E>F#:<F#>G:<GL8>F#.:<F#.>G.:<G.>A4:<A4>G:<G>F#:<F#>D:<DA.:<A.>>D.:<D.L4E:B:<B>GD:F#:<AA:>D:<F#F#:A:DD.:F#.:<A.L16>>GCEACEBCEGCEACEBCEGCEACEF#8B>DF#BL4E:A:<BL8>A:<B>G:<G>F#4:<F#4>G:<G>D:<DL16B:<BL8>B.:<B.>B16>C16<BL4G:DD:A:F#B8:C8E&E16:B&B16:C&C16R16A8:C8E&E16:A&A16:C&C16R16F#:<A>G:<A>A:DB:DL8<B:>B:E<A>DAL4<A:>G:DD:F#:<A>D:<AD:G:<AA:>F#:DL8GF#<A>>G:<G>G:<G>G:<GL4>D.:F#.:<A.>D:G:<AL8>>D:<D>D:<D>D:<D>D:<D>D:<DEEF#L2C&C8:G&G8:E&E8L8G>DC<B4&B16L16RAGA4&ARL8GA4AB16G.F#GAD2&DD<G16>C.DE2E.F#.GG4.F#16E16F#4.GE.:A.:C.E.:A.:C.E:CE:CF#:<E>F#:<E>F#:<E>D#.:<D#.>E.:<E.>F#:<F#>>D.:<D.>C.:<C.A:<A>B2.:<B2.L16O7E<B:>C:D:<AE:F:G:DL8<B.:>C.:<A.L4<<A:>D:<D>D:>D:<A>A:>D:<DL8>D:<A:>F#:<F#L2E:<B:>B:GL8A.:<A.>>D.:<D.>C:<CL2<B:>G:B:EL8A.:<A.>>D.:<D.>C:<CL2<B:>G:B:EL8G.:<G.>A.:<A.>B:<B>B.:<B.>A.:<A.>E2&E:<E2&EL4>A.:C.G8D.:<A.>A16B16G.:>C.:<D.L16B:DA:DB4.:D4.L8AB.A.E4E:<E>F#:<F#>G:<GL4>G.:<G.>F#8:<F#8>>C:<CB:<B>E:G:B:<B>>G:B:EL8<A.:<A.>>D.:<D.>C:<CL4<B:>G:B:E>E:G:CL8<A.:<A.>>D.:<D.>C:<CL4G:<B:>B:E>D:G:<BL8A.:<A.>>E.:<E.B:<B>>D.:<D.>C#.:<C#.A2:<A2>E16F#16G.:C.E.B4:D4AABA.:D.G.L4F#:DGL8F#F#.:C.A.:C.G2&G:C2&CL4D.:F#.:<A.>F#&F#16:A&A16:D&D16R16L8D:F#:<A>G16F#16G.E.B4AA>D<B4.:<B4.>B:<B>>E:<EB:<B>A:<A>>D:<DL2C:G#:>C:<FL8A#.:<A#.>>D#.:<D#.>C#:<C#L2G#:C:>C:<FL8A#.:<A#.>>D#.:<D#.>C#:<C#L2F:C:>C:<G#L8>C.:<C.>F.:<F.>C:<C>D#.:<D#.>D.:<D.A#2:<A#2>F16G16G#.:C#.F.>C4:<D#4A#A#>C<A#.:D#.G#.L4G:D#G#L8GG.:C#.A#.:C#.G#2&G#:C#2&C#L4<A#.:>G.:D#.G&G16:A#&A#16:D#&D#16R16L8G:>D#:<A#G#16G16G#.F.>C4<A#A#>D#C2<A#.G#.>D#<F.:G#.:>F.:C.C.:<C.>D#.:<D#.A#.:<A#.>>C#4:<C#4L1A#:D#:>D#:<G<F.&F8.:C.&C8.:<G#.&G#8.
#NewTrack
#trackName Acoustic Piano
L8C#G#2.&G#A:<A>EA2.<EB>E2.F#:<F#>C#F#G#A#2<A>EA4.E<A4EB>E4E<BE4F#>C#F#4<D#A#>D#4<G#>D#4G#D#<G#4.<C#G#>C#4.<G#>C#4<A>EAA4EA4<EB>E4<EB>E4<F#>C#F#G#A#4<F#4A>EA2.B:<B>F#2.&F#<A:<A>A:<A>A:<A>A:<A>A:<A>A:<A>A:<A>A:<A>A:<A>A:<A>A:<A>A:<A>A:<A>A:<A>A:<A>A:<A>B:<B>B:<B>B:<B>B:<B>B:<B>B:<B>B:<B>B:<B>B:<B>B:<B>B:<B>B2&B:<B2&BL1O4C#:>C#:<G#<A8>E2.&E8<B:G#:>EL2C#.:F#.:<B.G#4:<G#4L8C#.:>C#.:<G#.>C#.L4C#.:>C#.:<G#.L8C#:<C#B:<B>A.:<A.>A.>E4AB>C#<E.:<E.>E.B4G#>E<BF#.:<F#.>>C#.:F#.:<F#.L4G#:<G#>G#8>D#:G#:CL8<G#.:>C#.:<E.G#.:>D#.:<E.L4G#.:>E.:<E.G#:B:EL8A:<A>EBE>C#<EAE<B>F#BF#>C#<F#>D#<BG#.:<G#.L16>>C#:D#:<G#R8L4>C#:D#:<G#G#8G#:>D#:<BL8C#EG#E>C#<G#EC#<A>EA>C#EC#<AE<B>F#B>D#F#D#<BF#G#.:<G#.>A.:<A.>G#.:<G#.>F#.:<F#.>E:<E>D#:<D#>C#:<C#>C#>C#:<G#C#16>C#:<G#>C#:<G#C#16>C#:<G#C#C#:<C#>C#>C#:<G#C#16>C#:<G#>C#:<G#C#16>C#:<G#C#C#:<C#>C#>C#:<G#C#16>C#:<G#>C#:<G#C#16>C#:<G#C#C#.:<C#.>C#.:<C#.>C#.:<C#.>C#.:<C#.>F#:<F#>G#:<G#>C#:<C#>C#>C#:<G#C#16>C#:<G#>C#:<G#C#16>C#:<G#C#C#:<C#>C#>C#:<G#C#16>C#:<G#>C#:<G#C#16>C#:<G#C#C#:<C#>C#>C#:<G#C#16>C#:<G#>C#:<G#C#16>C#:<G#C#E:A:<AL4A>F#:D#:B:<BL8>BF#D#>C:<CG>CDEG>C<GD:<DA>DEF#AF#A<EGBG>E<BGE<B>DF#DBF#D<B>>C.:<C.>C.:<C.>C:<C>C2:<C2R.D.:<D.>D.:<D.>D:<D>D2:<D2L4A.:>A.:E.A16>E16A2<<B:<B>B8>F#:B:D#B8>F#:B:D#L8D.:G.:<A.>D.:G.:<A.>D.:F#.:<A.R4.R16E:<E>EGB>E<BGEC:<C>CEG>C<GEC<G:<G>GB>DGD<BGA:<A>A>C#EAEC#<A>C:<C>CEG>C<GECG:<G>GB>DGD<BGC:<CG>C<GA:<A>EAEL4B:<B>>D#:F#:B:<B>>D#:F#:B:<B<<B:<BL8>>E:<E>EGB>E<BGE>C:<C>CEG>C<GEC<G:<G>GB>DGD<BGA:<A>A>C#EAEC#<A>C.:<C.G.>D4:<D4A>D<A>G:<G>DGAB>DGD<C:<C>CEG>C<GECD:<D>DF#A>D<AF#D<CG>C<G>EG>C<G<DA>DEF#2C#:<C#>C#EG#>C#<G#C#:<C#B:<B>A:<A>A>EAB>C#EA<E:<EB>EG#BG#E<B>F#.:<F#.>>C#.:F#.:<F#.L4G#:<G#>G#8>D#:G#:C>C#2.&C#16:<C#2.&C#16L1RRR8.C:<G#:>G#:D#L4<B.:>E.:<E.>E.:>E.:<B.<B:>E:<EL8<A>EA>C#EC#<AE<B>F#B>D#F#D#<BF#G#.:<G#.>A.:<A.>G#.:<G#.>F#.:<F#.>E:<E>D#:<D#>C#:<C#>C#>C#:<G#C#16>C#:<G#>C#:<G#C#16>C#:<G#C#C#:<C#>C#>C#:<G#C#16>C#:<G#>C#:<G#C#16>C#:<G#C#C#:<C#>C#>C#:<G#C#16>C#:<G#>C#:<G#C#16>C#:<G#C#C#.:<C#.>C#.:<C#.>C#.:<C#.>C#.:<C#.>F#:<F#>G#:<G#>C#:<C#>C#>C#:<G#C#16>C#:<G#>C#:<G#C#16>C#:<G#C#C#:<C#>C#>C#:<G#C#16>C#:<G#>C#:<G#C#16>C#:<G#C#C#:<C#>C#>C#:<G#C#16>C#:<G#>C#:<G#C#16>C#:<G#C#L4E.:A.:<A.L2>D#&D#8:B&B8:F#&F#8:<B&B8L4>C:<CGL8>B.:<B.>A.:<A.>G:<GL4A:>D:F#:<F#A:>F#:DF#:A:DA:>D:<F#>E:G:<GE8B:>E:<GE8B<B:<B>B8>F#:B:DL8<B>F#4>C.:<C.>C.:<C.>C:<C>C2:<C2>D.:<D.>D.:<D.>D:<D>D2:<D2L4E.:A.:<A.>A16>E16A2<<B:<B>B8>F#:B:D#B8>F#:B:D#L1<F#:<B:>B:D#L8E:<E>EGB>E<BGEC:<C>CEG>C<GEC<G:<G>GB>DGD<BGA:<A>A>C#EAEC#<A>C:<C>CEG>C<GECG:<G>GB>DGD<BGC:<CG>C<GA:<A>EAEL4B:<B>>D#:F#:B:<B>B:>F#:B:D#O1B:<BL8>>E:<E>EGB>E<BGE>C:<C>CEG>C<GEC<G:<G>GB>DGD<BGA:<A>A>C#EAEC#<A>C.:<C.G.>D4:<D4A>D<A>G:<G>DGAB>DGD<C:<C>CEG>C<GECD:<D>DF#A>D<AF#DL2C:<C>C:R16G:E:R16>C:L4R.<<A:>D:<DL8>>D<AF#D<AF#CG>CEG>C<GE<DA>DF#A>D<AF#<EB>E<B>G<B>E<BL4A:>D:<D>D:>D:<A<A:>D:<DD:<D>C>CG:>C:<ECD:<D>F#:A:>D:<DA&A16:D&D16:>D&D16:<F#&F#16L8R.<EB>EGB>E<BG<DA>DF#A>D<AF#CEG>CD<EG>CE<EG>CD<EG>C<<DA>D<A>D<A>D<ADA>D<A>D<A>D<A>D:<D>D:<D>D:<D>D:<D>D:<D>D:<D>D:<D>D:<D>>D:<D>D:<D>D:<D>D:<D>D:<D>D:<D>D:<D>D:<DCG>C<G>E<G>C<G>D<F#AF#AF#>D<A>D<GBG>D<GBG.R16>ADF#DGDF#DL4C:G:B:EL8<B>C4DEGL4D.:F#.:<A.A16>D16L8F#.G.D<<A:<A>A:<A>A:<A>A:<A>>A:<A>A:<A>A:<A>A:<AB:<B>B:<B>B:<B>B:<B>>B:<B>B:<B>B:<B>B:<B>>D.:G.:<A.>D.:G.:<A.>D:F#:<AL2>D:F#:<AL4<D:<D>A:>D:<D>>D:<A:D>D.&D16:>D.&D16:<A.&A16R2.R16L8<C:<C>CEG>C<GEC<G:<G>GB>DGD<BGA:<A>A>C#EAEC#<A>C:<C>CEG>C<GECG:<G>GB>DGD<BGC:<CG>C<GA:<A>EAEL4B:<B>>D#:F#:B:<B>>D#:F#:B:<B<<B:<BL8>>E:<E>EGB>E<BGE>C:<C>CEG>C<GEC<G:<G>GB>DGD<BGA:<A>A>C#EAEC#<A>C.:<C.G.>D4:<D4A>D<A>G:<G>DGAB>DGD<C:<C>CEG>C<GECD:<D>DF#A>D<AF#DC:<CG>CDEG>C<GD:<DA>DEF#2<F:<F>F>C:F:<G#>F>C:F:<G#<F>C:F:<G#FC#:<C#>C#G#:>C#:<F>C#G#:>C#:<F<C#G#:>C#:<FC#G#:<G#>G#>D#:G#:CG#>D#:G#:C<<G#>D#:G#:C<G#A#:<A#>A#>F:A#:DA#>F:A#:D<<A#>D:A#:F<<A#>>C#.:<C#.G#.>D#4:<D#4A#>D#<A#>G#:<G#>D#G#A#>CD#G#D#<C#:<C#>C#FG#>C#<G#FC#D#:<D#>D#GA#>D#<A#GD#C#:<C#>C#FG#>C#<G#FC#D#:<D#>D#GA#>D#2<C.:F.:<F.>C.<A#.:>D#.:<D#.A#.L4G#:>C#:<C#L1A#:>D#:<D#:GF:>F:C