#Title 一千年以后

#trackName untitled
#NewTrack
L1RRRR.L8>C<C16D16EAG4.RFE16CED4.&D16R>C<C16D16EAB.G.E16A4.&A16RL32BRBRL16B>CDC<B.R32L8>C<B16>CE&E32R32<BA16BG&G32L32RARL16AB>CDCDFE8L32DRD8EDC16.RL8C<B16>CE&E32R32<BA16BG.A16>C4.R16L32CRCRL16CDE.D.C8D2L8RL16<B>CL8D.ED16C<G>D4&D16RL16EDL8C<B16AEB4&B16.L16R.>C<BL8AB16>CD<G.>E32R32E.L16REF8EC8D.R32D4<B>CD8&D32R32L8ED16C<G>D4.L16DEDL8C<B16A>D<B4.L16R>C<BL8AG16A>C<G.>D16C&C32L32RERE16F16ED4&DL16CDD#.D.CD#.C.<G8>C2.&C8.L1RRR.R8.L16<G>EL32DRD16CRL8C<B16>CE&E32R32<BA16BG&G32L32RARL16AB>CDCDFE8D32R32D8GDC32R32L8C<B16>CE&E32R32<BA16BGA>C4L16RC<B>C.D.EF.E.L8CED4L16ER8.<B>CL8DR16ED16C<G>D4&D16RL16EDL8C<B16AEB4&B16.L16R.>C<BL8AB16>CD<G.>E32R32E.L16REF8EC8D.R32D4<B>CD8&D32R32E8DC8<G>GD4.DEDL8C<B16A>D<B4.L16R>C<BL8AG16A>C<G.>D16C&C32L32RERE16F16ED4&DL16CDD#.D.CD#.C.<G8>DC4.R1.R8.<A>A8.F#E4&EL32F#ED16E16F#ED4.C#8L16<BA4>DC#L8<B>C#16DE<A.>F#32R32F#.L16RF#L8GF#16DF#E.L16RC#DL8E.F#L16ED8<A>AE4.EF#EL8DC#16<B>EC#4.L16RDC#L8<BA16B>D<A.>E16D&D32L32RF#RF#16G16F#E4&EL16DEF.E.DF.D.L8<A>E16D2R.AF#16G16F#32E4.&E32F16.E16.DFD2&D16<A4>E4D1
#NewTrack
L1RRRRRRRRRRRRR.L2<<C<BAGFE4A4>D<G>C<BAGFE4A4>D<G#L1>CRRR.L4R<GA.L16RAG4.&GGF4.&FF>C32RC.<B4&BA4.&AAG4.&GGF4.&FF32R32L4FE>D.&D16D16<GG>C&C16<G32R32L16>C<GB4.>C<BA4&AE32R32AEG4&G>DG8F4&FC32R32FCL4E<A>D&D16<A32R32L16>D<AG8.>DGD<G8>C4&C<G32R32>C<GB4.&BGA4&AE32R32AEG4&G>DG8F4&FC32R32FCL4E<A>D&D16<A32R32L16>D<AG#L32RG#16RG#RL16G#R32G#R32G#>C4.&C<G>C32R1R4.R.<D4&DA>D<A>C#.R32C#8.<A8>C#<B4&BF#BF#ARA8.>EA<AG4&GDG8F#4B8F#B>E4&E<B>E<BAR32AR32A8EA>C#D4&D<A32R32>D<A>C#4.&C#<AB4&BF#32R32BF#A4&A>EA8G4&GD32R32GDL4F#<B>E&E16<B32R32L16>E<BA#L32RA#16RA#RL16A#R32A#R32A#D4.&DD32R32D4.&DDE4.&EEL1A#.RRR.G
#NewTrack
R2>>C8:O3C2:R16.R64G.:>>C16:R32.D16E8A8<<E2:>>G2:R16.R64<<B.:R8>G:E:R8.R32.<<F2:O5G8:R32.<<C.&C16:L16RF:>F:R32.<G:>G:R32.L8<A:>A:R16.R64>E:<<F:R16.R64>>D2:O2G2:R32.>D4.&D16:L16RGAL8BGO6C:O3C2:R32.G4.&G16:L16R>>C:<C:R32.>D:<D:R32.L8>E:<E:R16.R64>A:<C:R16.R64>B4:<<E2:R32.B4.&B16:L16R>D4.:RG4&G:R>G8.:<B4:R8L32R.>EDC1:O2F2:R.>C4.&C16:L16RF.:RGA8>C8<<F2:<F2:L4R.R16.R64>>C.:G.:>C&C16:E.R16.R64<<E2:L8>>D:<G:BR16.R64E4:R16>D.:<B.:L16>G:R32.F#GL2<<F:>>F:C8:<A:R8.R32.>C4<<G4:>G8:D16:B8R16.R64>C4:L8<D:R32.<G.:L16R>G8:RD<C2:L8>G:E:>CR16.R64L4C:G:E:R8.R32.L2<<E:>G:B:E:R4.L16R.R64<F2:>>A:C:R32.<C4.&C:R>C8:RE4&E:L8RC.<<G:>F:A:>CR16.R64L4<<G#:>G#:E:B:R8.R32.L16<A:O5C:<E:R32.<E>EGRL8>C.:<E.:R32.<A<G2:L16>>B:G:D:R32.<D4.&D:RGARB8.<F2:>>C:A:F:R32.<C4.&C:RFG:BR32.A:>CR32.D:<B:R32.<C:>G:>E:C:R32.<<G>G>E<<B4:>B:L8>D:R32.<G.:L16RB8:R>G<<A2:O5C:<E:R32.<E8:RA>C<EA8.:>E8.:R.R64<EB:>G:<<G2:R32.>D4.&D:RB>B4&B:D4&D:R.R64G8.<<F2:>>C:G:R32.<C4:RF>CRC8.:R<C8:RF<F8:>F:>C:R32.<CF>C<G4:<E4:R32.>C8.:RE8:R>C<<D2:>>C:<F:A8:R32.<A>FA<AL8>>F.:<A.:R32.<A:R16>>C16L2<D:B:G:<G:R4.R16.R64>C4.:>>E8:L16<GR32.<G4&G:R>G4:L8R>CR16<G:>D4:O2B2:L16R.R64>G8.:R>GRB<G8:R>D<<A4.:O5C:<ER32.<E8.:R>CC8:RL8GR16<<G2:>>B.:D.:RR32.L16G<D4:RB8.:R>D8:RG<<F2:>>A:CR32.<CF4&F:RC>C8.:RL8<C:L16RA<E8:>>C8.:<GR32.<B>G<A4:L8>>C:R32.<E.:L16RG8:R>EC8:<F:<D2:R.R64A>F<AL8>>C.:<F.:R32.<A:R16>A16<G2:>>D:<B:L16GR32.D4.:R>B>CD8.<<C4&C:>>E8:<GR32.<G8.:R>GR>C8<G<<B2:O5D8:<GR.R64G8:R<G4:R>D8.:RG8:RB<<A2:O5C:<ER32.<EL8>EA.:L16R<E8:R>E<<G2:>>B8:D8:R.R64<D>D<D4:R>>D8.:RG8:RBO2F2:O5A:CR32.<<C>F:C:R32.<C>A<C8:R>F<<E:>>G8:C:R32.<C>CRL4<<A:>>E:<G:L16R.R64E8:R>C<F:A8:<D2:>>C8:R.R64<<A>FRF:L8>C.:<A.:R32.<A:R16>F16L2<G#:>F:>D:<G#:R4.L16R.R64>C:<<C1:>G:ER32.<G>GR>E<<G2&G8:R>>G2&G:R>G2>C8:O3C2:R.R64G4.:>>C:R32.DE8A8<<E2:>>G2:R.R64L4<<B.:R8>G:E:R8.R32.<<F2:O5G8:R32.<<C.&C16:L16RF:>F:R32.<G:>G:R32.L8<A:>A:R16.R64>E:<<F:R16.R64>>D2:O2G2:R32.>D4.&D16:L16RGAL8BGO6C:O3C2:R32.G4.&G16:L16R>>C:<C:R32.>D:<D:R32.L8>E:<E:R16.R64>A:<C:R16.R64>B4:<<E2:R32.B4.&B16:L16R>D4.:RG4&G:R>G8.:<B4:R8L32R.>EDC16:O2F2:R.>C4.&C16:L16RF8:RA>CRF8>D:O2G2:R32.>DGB>D4:R<D8.:R>G8<<A:O5C:<E:R32.<E>EGRL8>C.:<E.:R32.<A<G2:L16>>B:G:D:R32.<D4.&D:RGARB8.<F4&F.:>>F.:C.:<A.R64CL32>CRF8:R16<CR>CRARL16<C:>G:E:CR64<C:>E:G:CR64D.:<B.:<B8:>>G4&G:R.R64D8.:R<<B8:R>G<A2:O5C:<E:R32.<E8:RA>C<EA8.:>E8.:R.R64<EB:>G:<<G2:R32.>D4.&D:RB>B4&B:D4&D:R.R64G8.<<F2:>>C:G:R32.<C4:RF>CRC8.:R<C8:RF<F8:>F:>C:R32.<CF>C<G4:<E4:R32.>C8.:RE8:R>C<<D2:>>C:<F:A8:R32.<A>FA<AL8>>F.:<A.:R32.<A:R16>>C16L2<D:B:G:<G:R4.R16.R64>C4.:>>E8:L16<GR32.<G4&G:R>G4:L8R>CR16<G:>D4:O2B2:L16R.R64>G8.:R>GRB<G8:R>D<<A4.:O5C:<ER32.<E8.:R>CC8:RL8GR16<<G2:>>B.:D.:RR32.L16G<D4:RB8.:R>D8:RG<<F2:>>A:CR32.<CF4&F:RC>C8.:RL8<C:L16RA<E8:>>C8.:<GR32.<B>G<A4:L8>>C:R32.<E.:L16RG8:R>EC8:<F:<D2:R.R64A>F<AL8>>C.:<F.:R32.<A:R16>A16<G2:>>D:<B:L16GR32.D4.:R>B>CD8.<<C4&C:>>E8:<GR32.<G8.:R>GR>C8<G<<B2:O5D8:<GR.R64G8:R<G4:R>D8.:RG8:RB<<A2:O5C:<ER32.<EL8>EA.:L16R<E8:R>E<<G2:>>B8:D8:R.R64<D>D<D4:R>>D8.:RG8:RBO2F2:O5A:CR32.<<C>F:C:R32.<C>A<C8:R>F<<E:>>G8:C:R32.<C>CRL4<<A:>>E:<G:L16R.R64E8:R>C<F:A8:<D2:>>C8:R.R64<<A>FRF:L8>C.:<A.:R32.<A:R16>F16L2<G#:>F:>D:<G#:R4.R16.R64>G8&G32:>C8:<<C4&C16.:>E8&E32L16RR64G.:>C.:<E:L32R.<GR>ERGR<C:>E:G:CR1R4.R16R64L8F#:<A:<D2:>>DL16<<A>>F#:<A:>DRL8F#.:D.:A.<C#2:L16>>C#:<E:AR<AL32>>E:<A:>C#RE:<A:>C#R16L8<A&A32:>C#&C#32:<E&E32:L16R.<A<B4.&B32:>>F#.:>D.:<B.L32R<F#16>F#:BR<F#8&F#:L16R>D8&D32:RF#B32R32A.:<<A2:R>E.:RL32>C#RC#:ERL16<E>C#8.:<AE8:RA>B.:<<G2:>>D.:G.L32RL16<D.:R>D32:G32R.L8G.:B.:L16D<D8:R>D<F#.:>A8:>D8:<F#L32C#RF#RARL16B:<<B4:O5D:<F#.R32<F#8:R>DB:E:<E2:>GRL32>D:<G:BRB:G:>DR<G:>D:<BR<B16L8>B:E:G:R16<B16L32>E:C#:A:<<A16R>>E:A:C#:<<AL16RA4&A:>>A.:C#:E.R32<E8.:R>E8:RA<D4&D:>>F#8:<AR32.<A8.:R>AR>D8<A<C#2:>>E8:<AR.R64A8:R<A4:R>E8.:RA8:R>C#O2B2:O5D:<F#R32.<F#L8>F#B.:L16R<F#8:R>F#<<A2:O5C#8:<E8:R.R64<E>E<E4:R>>E8.:RA8:R>C#O2G2:O5B:DR32.<<D>G:D:R32.<D>B<D8:R>G<<F#:>>A8:D:R32.<D>DRL4<<B:>>F#:<A:L16R.R64F#8:R>D<G:B8:<E2:>>D8:R.R64<<B>GRG:L8>D.:<B.:R32.<B:R16>G16L2<A#:>G:>E:<A#:R4.R16.R64D1:L8>A:>D:<F#:L16R.R64<AR>A:F#:DR32.<A>A:F#:>DR32.<<A>DEF#4:RL8<A.:R16>AG:D:<E2:>B:R16.R64<B4.:R16>D4&D16:RG.:B.:RR32.L1G.:A#.:<<A#.:>>E.:RR4.R16.R64>>D8:O3D2:R16.R64A4.:>>D16:R32.E16F#8B8<<F#2:>>A2:R16.R64L4<C#.:R8A:F#:R8.R32.<<G2:O5A8:R32.<<D.&D16:L16RG:>G:R32.<A:>A:R32.L8<B:>B:R16.R64>F#:<<G:R16.R64>>E2:O2A2:R32.>E4.&E16:L16RABL8>C#<AO6D:O3D2:R32.A4.&A16:L16R>>D:<D:R32.>E:<E:R32.L8>F#:<F#:R16.R64>B:<D:R16.R64>>C#4:O3F#2:R32.>C#4.&C#16:L16RE4.:RA4&A:R>A8.:C#4:R8L32R.F#ED1:O2G2:R.>D4.&D16:L16RG.:RAB8>D8<<G2:<G2
#NewTrack
L1RRRRRRRRRRRRRRRRRRRRRRRRRR.R8.A16&A64:E16&E64L32RE:A64R16.E:A64RG4&G64:D4&D64RG:D64R16.G:D64L8RR32F&F64:A&A64L32RF:AR16R64F:A64RG:>CR16<G:>CR.<B8&B64:R16.L64RG:>C8.R32.<C:A:ER16.E8:A8:C16.&CC:E:AR16.E:C:AL16R.D.:<B&B64:>G.L64RD:<B:>GR32D:G:<BR32L8>G.&G64:<B.:>D.RR32.L64C:FR32C:FR32C16.:F16.RC:FL32RF8&F.:A8&A.R16E4:G4R.D16.:F16.L64RF32:DR32D:FR32F16.:D16&DR32F:DR32D2&D:G2R8R32.E:GR32E:GR32G16.:E16.RE:GL16R.B.:G.L64RG:BR32G16.:B16.RG:B32RG:BL16R.E.&E64:A.L64RE:AR32E:AR32E16.:A16.RE:AL16R.G.:D.R64G32:D64R32D4&D64:G4:L8R.R32.C&C32:F&F64R32L64F:CR32F:CR32C16.:F16.RC:FR32C8&C:E8&ER32E32:CL16R.G.:E.L64RE:GR8.L32RL64D:FL32RF:D64RF16.:D16.R64F:D64L16R.D&D64:G&G64R32L64G:DR32G4&G:D4&DR32E16.:G16.RE:GR32G16.&G:E16.RE:GR32G:EL16R.G&G64:B&B64R32G64:B64R32G.:B.R64L32G:B64RG:B64R8RA:L64ER32E:AR32E:AR32E16.:A16.RE:AL16R.G&G64:D&D64R32G64:D64R32G.:D&D64R32L64D:GR32D:GL16R.C&C64:F&F64R32F64:C64R32C.:F.L64RL32F:C64RC64:FL16RR64G.:E&E64R32G32:E64R.E.:A&A64R32L64E:AR8R32D:FR32D:FR32D:FR32D16&D:F16&FL32RF:D64RG#8.&G#64:F8.&F64RF8&F:G#8&G#R16R64E4&E16:G4&G16&G64R8R>C:<G
#NewTrack
L1RRRRRRRRRRRRRRRRRRRRRRRRRRRRRRRR8.L16B:>B:<G>C:>C:<<AL8>D.:>D.:<<B.L2>E:C:>E<D:<B:>>D4G4<<A:>>C:<C<B:G:>B4G4<A:>A:<FE:L4>>C:<<G>G:<AL2D:F:>>D<<G4:B4:>G8.L16BC:<A:>>CL8<D.:<B.:>>D.L2<C:E:>E<D:<B:>>D4G4<C:>C:<<AG:B:>B4>E4<<F:>A:<AE:L4>G:<G>>E:<<AF1:L2>>F:<<DG#:L16>>D#.D.CD#.C.<G#L2<G:>>C:<CR1.F#:>F#:<DE:C#:>E4A4<<B:>D:>D<<A:>C#:>C#4F#4<<B:>B:<GF#:L4>A:<AL2B.:>>D4E:<EC#:A:<A>D:F#:>F#<E:C#:>E4A4<D:>D:<<BA:>C#:>C#4F#4<<G:>B:<BF#:L4>A:<A>>F#:<<BG1:L2>>G:<<EA#:L16>>F.E.DF.D.<A#L1D:>D:<F#
#NewTrack
L1RRRRRRRRRRRRR.L2>C:<E:GD:B:GA:E:C<B:>G:DA:C:FL4G:C:E<A:>E:CL2A:C:F<B:>G:D>C:<E:GD:B:GC:A:EG:<B:>DC:A:FL4C:G:EC:E:<AL2>A:C:FF:C:G#L1E:C:GRRRRL2E:AG:DC&C8.:FE8.D4&D16:<B4&B16A:>CG:DA.:F.E4:G4L1D:F2G2RRRRRRRRRRRRRRRRRRRRRRRR.<G:<G:>D
#NewTrack
R2L8>>C<C16D16EAG4.&G32L16R.L8G<F16G16A>ED2>C<C16D16EAB4G.E32D32C2.L1RRRRRRRRRRRRRRRRRRR4L8>C<C16D16EAG4.&G32L16R.L8G<F16G16A>ED2>C<C16D16EAB4G.E32D32C2D2L1RRRRRRRRRRRRRRRRRRRRRRRRRRL8>D<D16E16F#BA4.&A32L16R.L8A<G16A16B>F#E2>D<D16E16F#B>C#4<A.F#32E32D2.
#NewTrack
L1RRRRRRRRRRRRRRRRRRRRRRRRRR.<A8:<A8.&A32:R16.R64L32>ERL8>C<A32RR32B:<G4:L32R.>D8.&D:R16GR>D8<BR8R<F2:>>C8.:R16.R64<C8:R16AR>F4:L16R<C8.:R>C8:R<AL32>E:<G:>CR16C:E:<GRB8:>D8:<G16.R64GRB8:L16R>DC8.:<<A4&A:R.R64>E8.:RAR>E8<A32R32<G2:>B8.:R.R64D4.:RGR>D8.<<F4.:>>C8:R.R64<C8:RFRA8F32R32<F.:>>C8:R.R64<A32R.>E4:<<E4:R32.L8>>C.:R16<G>D.:<D:R16.R64F16A.:RD:L16RFAB8:<G2:>GR32.D>D:<BR32.>G8.:R<D8:RGC4.&C:>E8:C8:R.R64<G>CRL8E:CR32.D.:<<B4:>B.R32.>D:L16R<<B>GB>C8:<A8:<A4.:R.R64>E8.:RAR>E8:R<EAB8:<G2:>>D8R32.<BD4:RGB8:RG>C8:<<F2:>A8:R.R64C4.:RARL8>C.:R<A16>E:C:<<E:R32.L16>CGR>C4:<<A4:>AR32.L8E:R16A16>D:F:<D.:R16.R64A16>D.:R<D:L16RA>DD:<<G2:>B:>GR32.<DB:G:R32.L8D:R16B16>G:D:<B:R32.D16C.:>E:C:L16R.R64<G>CRC8:E8:<GR32.GL8G:B:>D:<<B.:RR32.>>D:L16R<<B>GBGL8A:>C:<<A.:L16R.R64>EAR>E8<A<G2:>B8.:R.R64D4.:RG>D4:RL8<B.:R16G>F:<<F4&F16:L16R.R64>C8.:RARL8>C<A16<E:>>E:R32.L16<CG>C8.:R<<A4:R>E8.:RL8A:L16R>CF8:<D8.:R.R64AL8>D.:R<D.:L16RA8:R>D<G#:>D:<FR32>D:<G#:FG#:F:>D:R32.<G#:F:>DR32<G#:>D:<FG#:>D:<F:R32.L4>C&C16:<G&G16:>E&E16R8L32R.<E:>C:<GR1R4.R16R64>D8:<<D4:L16R.R64A8.:R>F#R>DL8R<C#:A:>C#:L16R.R64<EC#4:RA>E8:RC#<AB8:>D8:<<B4:R.R64>F#BRB8:>D8:<F#R32.F#<A4:>A:>C#8:R32.<E8.:RA>E:<AR32.>C#8<AG8:<G4.&G:>B8:R.R64DB:>D8:<GR32.BDRA8:<F#8:>F#R32.F#RF#:B8:>D4:<<B4:R.R64>F#8:RBB8:>E.:<G:E8&E32:R.R64L32GRB16E8&E:L16R>E8:R<BL32GRA:>C#:<ER16A:E:>C#RL8<A:>C#:<E16R32.E.:L16RL8<A:R16>A16D.:>F#:D:L16R.R64<A>DRD8:F#8:<AR32.AL8A:>C#:E:<C#.:RR32.>E:L16R<C#A>C#<AL8B:>D:<<B.:L16R.R64>F#BR>F#8<B<A2:>>C#8.:R.R64<E4.:RA>E4:RL8C#.:R16<A>G:<<G4&G16:L16R.R64>D8.:RBRL8>D<B16<F#:>>F#:R32.L16<DA>D8.:R<<B4:R>F#8.:RL8B:L16R>DG8:<E8.:R.R64BL8>E.:R<E.:L16RB8:R>E<A#:>E:<GR32>E:<A#:GA#:G:>E:R32.<A#:G:>ER32<A#:>E:<GA#:>E:<G:R32.D8:A8:>DR32.<F#AD>D8:R<DAL8>D:<D.:A:>F#R32.F#4&F#16:L16R<D4:RL8A.:R16>DE:<E2:L16R.R64B>G4&G:L8RE.:R<B16L1A#.:G.:>E.
#NewTrack
L1RRRRRRRRRRRRRRRRRRRRRRRRRRRRRRRRRRRRRRRRL4R<<E:R64<A:R8.L32R.B:L64RL32A:L64RL32B:L64RL32A:L64RL32B:L64RL32A:L64RL32B:L64RL32A:L64RL32B:L64RL32A:L64RL32B:L64RL32A:L64RL32B:L64RL32A:L64RL32B:L64RL32A:L64RL32B:L64RL32A:L64RL32B:L64RL32A:L64RL32B:L64RL32A:L64RL32B:L64RL32A:L64RL32B:L64RL32A:L64RL32B:L64RL32A:L64RL32B:L64RL32A:L64RL32B:L64RL32A:L64RL32B:L64RL32A:L64RB32:RA32:RA4:R>D4L1RRRRRRRRRRRRRR.R4.R16.L64REDEDEDEDEDEDEDEDEDEDEDED
#NewTrack
L1RRRRRRRRRRRRRL64<C#C#C#C#C#C#C#C#C#C#C#C#C#C#C#C#C#C#C#C#C#C#C#C#<C:>C#R2.R8R32.<CR32.CR2.R8.R32.CR2.R8.R32.CR4.R16.R>C#C#C#C#C#C#C#C#C#C#C#C#C#C#C#C#C#C#C#C#C#C#C#C#<C:>C#R2.R8R32.<CR32.CR2.R8.R32.CR2.R8.R32.CR2.R8.R32.CR4.R16.R>C#C#C#C#C#C#C#C#C#C#C#C#C#C#C#C#C#C#C#C#C#C#C#C#C#:<F#:>D#:<<BR32.BR32.>>D#:<F#R32.<BR32.>F#:>D#:<ER16.RF#:>D#:<<BR16.R>F#:>D#:<<BR16.R>F#:>D#:<<BR16.R>F#:>D#:<ER16.R>D#:<F#R32.F#R32.F#:>D#:<<BR32.BR32.>>D#:<F#R32.<BR32.>F#:>D#:<ER16.RF#:>D#:<<BR16.R>F#:>D#:<<BR16.R>F#:>D#:<<BR16.R>F#:>D#:<ER32.F#R32.>D#:<A#R16.RF#:>D#:<<BR32.BR32.>>D#:<F#R32.<BR32.>F#:>D#:<ER16.RF#:>D#:<<BR32.>F#R32.F#:>D#:<<BR16.R>F#:>D#:<<BR16.R>F#:>D#:<ER16.R>D#:<F#R16.RF#:>D#:<<BR32.BR32.>>D#:<F#R32.<BR32.>F#:>D#:<ER16.RF#:>D#:<<BR32.>F#R32.>C#:<F#:>D#:<<B>>C#C#C#C#C#C#:<F#:>D#:<<B>>C#C#C#C#C#C#:<A#:>D#:<E>C#C#C#C#C#C#C#C#C#C#C#<C:>C#R16.R<F#R32.O5D#:O2F#R32.F#:C#R32.O5G#:O2F#R32.O5A:O2F#R32.C:F#R32.C:F#R32.O5D#:O2F#L32R.L64F#R32.F#R32.F#:>F#:<C#R32.F#R32.C:F#R32.F#R32.C:F#L32R.L64F#R32.F#R32.O5D#:O2F#R32.F#:C#R32.O5G#:O2F#R32.O5A:O2F#R32.C:F#R32.C:F#R16RC:F#R16RC:A#R32.>F#:<C#R32.F#RF#RC:F#R32.F#R32.C:F#R32.F#R32.O5D#:O2F#R32.C:F#R32.F#:C#R32.O5G#:O2F#R32.O5A:O2F#R32.C:F#R32.C:F#L32R.L64F#R32.F#R32.C:F#R32.F#:>F#:<C#R32.F#R32.C:F#R32.F#R32.C:F#L32R.L64F#R32.F#R32.O5D#:O2C:F#R32.F#:C#R32.O5G#:O2F#R32.O5A:O2C:F#R32.F#R32.C:F#L32R.L64F#R32.F#R32.C:F#R32.F#:>F#:<C#R32.F#R32.C:F#R32.F#R32.C:F#L32R.L64F#R32.F#R32.O5D#:O2F#R32.F#:C#R32.O5G#:O2F#R32.O5A:O2F#R32.C:F#R32.>C#:<C:F#>C#C#:R<A#:>C#:<D>C#C#C#C#C#<C:>C#C#C#C#:<D>C#C#<B:>C#C#C#<F:>C#C#C#C#C#C#<C:>C#R16.R<F#R32.F#R32.F#:DL32R.L64F#R32.F#R32.C:F#R32.C:F#L32R.L64F#L32R.L64F#R32.F#R32.F#:DR32.F#R32.A#R16.RC:F#L32R.L64F#L32R.L64F#R32.F#R32.F#:DL32R.L64F#R32.F#R32.C:F#R32.C:F#R32.F#R32.C:F#R32.F#RF#RF#:DL32R.L64F#L32R.L64A#R32.CR32.C:F#L32R.L64F#L32R.L64F#R32.F#R32.F#:DL32R.L64F#R32.F#R32.C:F#R32.C:F#L32R.L64F#L32R.L64F#R32.F#R32.F#:DR32.F#R32.A#R16.RC:F#L32R.L64F#L32R.L64F#R32.F#R32.F#:DL32R.L64F#R32.F#R32.C:F#R32.>C#:<C:F#>C#C#C#:<F#>C#:R<C:R>C#C#:<F#>C#C#C#:<C:F#>C#:R<F#:R>C#<A#:>C#:<D>C#C#<A:>C#C#C#C#C#C#<F:>C#C#C#<C:>C#R16.R<F#R32.F#R32.F#:DL32R.L64F#R32.F#R32.C:F#R32.C:F#L32R.L64F#R32.F#R32.F#RF#RF#:DL32R.L64F#L32R.L64F#R32.F#R32.C:F#L32R.L64F#L32R.L64F#R32.F#R32.F#:DL32R.L64F#R32.F#R32.C:F#R32.C:F#R32.F#R32.C:F#R32.F#R32.F#:DR32.A#R16.RC:F#R32.C:F#L32R.L64F#L32R.L64F#R32.F#R32.F#:DL32R.L64F#R32.F#R32.C:F#R32.C:F#L32R.L64F#L32R.L64F#R32.F#R32.F#:DR32.F#R32.A#R16.RC:F#L32R.L64F#L32R.L64F#R32.F#R32.F#:DL32R.L64F#R32.F#R32.C:F#R32.C:A#R16RA:R>CR16<B:RGR32C:>AR16R<F:RAR16FR32.C:>C#R32.<GR16.RDR16.RF:RAR16.ARFR>G:<C:DR8.R32.>C#:<G:RF:R>C#C#C#C#C#C#C#C#C#C#C#C#C#C#C#C#C#C#C#C#C#C#C#C#C#C#C#C#C#C#C#C#C#C#C#C#C#C#C#C#C#C#C#C#C#C#C#E:A:<C:DR8.R32.C:>C#R16.R<C:A#R16.R>A:>>B:O2DR16.RA#R32.DR32.C:A#R32.DR32.C:A#R16.R>A:>>B:O2DR16.RA#R32.DR32.C:A#R16.RC:A#R16.R>A:>>B:O2DR16.RA#R32.DR32.C:A#R32.DR32.C:A#R16.R>A:>>B:O2DR16.RA#R32.DR32.C:>C#R16.R<C:A#R16.R>A:>>B:O2DR16.RA#R32.DR32.C:A#R32.DR32.C:A#R16.R>A:>>B:O2DR16.RA#R32.DR32.C:A#R16.RC:A#R16.R>A:>>B:O2DR16.RA#R32.DR32.C:>C#R16R<C:>AR16R<C:>C#R32.>>B:O2DR32.A:>CR32<DRDRDRDRC:>C#R16.R<A#R32.CR32.>A:>>B:O2DR16.RC:A#R16.RC:A#R16.RC:A#R16.R>A:>>B:O2DR16.RC:A#R16.RC:A#R16.RA#R32.CR32.>A:>>B:O2DR16.RC:A#R16.RC:A#R32.DR32.C:A#R16.R>A:>>B:O2DR16.RC:A#R32.>A:<DR32.C:>C#R16.R<A#R32.CR32.>A:>>B:O2DR16.RC:A#R16.RC:A#R16.RC:A#R16.R>A:>>B:O2DR16.RA#R32.DR32.C:A#R16.RA#R32.CR32.>A:>>B:O2DR16.RC:A#R16.R>A:<DR16RA:R>CR16<BR32.O5B:O2BR16RAR16RGRFRC:>C#R16.R<A#R16.RF#:O5B:O2DL32R.L64F#L32R.L64A#R32.CR32.C:>AR16.R<A#R16.RF:RBR8.R32C:F#R16.RF#R16.RF#:C#R16.RF#R32.C:F#R32.C:A#R2.R8.R32.>C#C#C#C#C#C#C#C#C#C#C#C#C#C#C#C#C#C#C#C#C#C#C#C#C#L1RRR.R4.R16.L64RC#C#C#C#C#C#C#C#C#C#C#C#C#C#C#C#C#C#C#C#C#C#C#C#C#
#NewTrack
#NewTrack
L1RRRRRRRRRRRRRRRRRRRRRRRRRRRRRRRRRRRRRRRRR.<F#2:D2:R4.R16.R64C#2:E2:R4.R16.R64D2:<B2:R4.R16.R64A2:>C#2:R4.R16.R64<B2:G2:L4R.R16.R64F#:A:R8.R32.B:>D:R8.R32.E2:<B2:R.R16.R64L32A:>ER16<A:>ERL4E&E16:<A&A16:RR32.L2>F#:DE:C#D:<B>C#:<AB:GL4A:F#>D:<BL2B:>E<A#:>EF#1:D1
#NewTrack
L1RRRRRRRRRRRRRRRRRRRRRRRRRRRRRRRRRRRRRRRRRR4.R16L32>>DEF#16DEF#4.E2&E8L16DC#<B>E8C#2&C#<B4.&B.:R4.RL64R>C#32:R<B32:RA4D4L1RRRRRRRR.R4L16F#.G.F#L2BARR8.L16AB.A.GF#8.D1&D4&D
#NewTrack
R2>>C64R16.R64L32<CRDRL64ER16.RAR16.RGR4.R16.RGR16.RL32<FRGRA64R16.R64>ER16.L64DR4.R16.R>CR16.RL32<CRDRER16.AR16.B64R8.R.GR8RE:R64DCL1RRRRRRRRRRRRRRRRRR.R4.R16.>C64R16.R64L32<CRDRL64ER16.RAR16.RGR4.R16.RGR16.RL32<FRGRA64R16.R64>ER16.L64DR4.R16.R>CR16.RL32<CRDRER16.AR16.B64R8.R.GR8RE:R64DCL1RRRRR.R8.R32L4<<GC2<B>GA2GEF2E>C<DL8EFG4.DC2<B2L4A>AGEF2EADE8F16G16G#>DC<GC32R1R.R16.DL8>DEC#4DC#<B2A4>C#<AG4ABF#4>DF#E2<A4>C#D16E16D2C#4<A>C#L4DC#8<B8AF#G2F#>DE<BA#&A#16A8G16D2.AEF#8G16A16L2G.:A#.:R4>ER.>>D64R16.R64L32<DRERL64F#R16.RBR16.RAR4.R16.RAR16.RL32<GRARB64R16.R64>F#R16.L64ER4.R16.R>DR16.RL32<DRERF#R16.BR16.>C#64R8.R.<AR8RF#:R64ED
#NewTrack
L1RRRR4.R16R64<F&F32.:R64>C&C32:G&G64:R64F:R64>C2.&C8.&C32.:R32G2.&G8.&G64RRRRRRRRRRRRRRRRRRRRRRRRRRRRRRRRRRR.O2G32R8.R32<C16:R64>C16&C64:L32R.<C:L64RL32>C:L64RL32<C:L64RL32>C:L64RL32<C:L64RL32>C:L64RL32<C:L64RL32>C:L64RL32<C:L64RL32>C:L64RL32<C:L64RL32>C:L64RL32<C:L64RL32>C:L64RL32<C:L64RL32>C:L64RL32<C:L64RL32>C:L64RL32<C:L64RL32>C:L64RL32<C:L64RL32>C:L64RL32<C:L64RL32>C:L64RL32<C:L64RL32>C:L64RL32<C:L64RL32>C:L64RL32<C:L64RL32>C:L64RL32<C:L64RL32>C:L64RL32<C:L64RL32>C:L64RL32<C:L64RL32>C:L64RL32<C:L64RL32>C:L64RL32<C:L64RL32>C:L64RL32<C:L64RL32>C:L64RL32<C:L64RL32>C:L64RL32<C:R64C:R64>CL1RRRRRRRRRRRRRRR8R32G&G4.&G64:R64>A&A4.:D&D4.:R64B&B4&B16.&B64:R64>G&G4&G16