#Title 偏爱
#NewTrack
T138 A. G# E8 A8 >E8 E2. <A8 B8 B2 >E1 <A8 G#&G#16:R8 E8 C#8 A8 G#8 A8 >C# <E8 A8 >E8 E. D&D32R16R64 C# <B2.&B8&B32 E1&E64:R32 B2.&B8.&B32.:R32 >E1 <A2 F#8 G#8 A A2 D8 D2.&D8 B:E E >C#:<A B B8:G#8 A8 G#8 A2. A8 B8 A2.&A8:F#2.&F#8 D8 D8 F#. E8 E.R8 >E2 <B8 A8 G#8 C#8 F#2 >C#8:<F#8 G#8 A A B8 >C#&C#32R16R64 <A8 >C#2.&C#8 C#8 C#8:<A8 B8 >E. E:<B G#8 A B8 A1&A >C#8 D8:<B8 >C#8:<A8 >D8:<A8 >C# <A8 A F#8 B1&B F#.&F#16.:R32 B.&B16:R32 >D.&D16 D:<B >D:<A >D:<F# >C#8 C#&C#32R16R64 <B8 >C#2.&C#8 C#8 C#8:<A8 >C#8 F#. <B A8 A2.&A8 F#8 F#8 F#:D G# A8 >C#. <B1:G#1 >C#2R2 A:<A >A:<A A8.&A32.:>A. <A8 >A8:<A8 >A:<A >A.&A32:<A.&A32R16R64 A8 >A:<A >G#:<G# >F#8:<F#8 >E.:<E. >C#2:<C#2 >C#8 <B8 A8 F#8 A B8 >C#.&C#32R16R64 <F#8 A B8 >C#.&C#32R16R64 <F#8 A B8 >C#2&C#8 <E8 A8 >C#8 F#8 A8 G#8 F#8 C#8 A:<A >A:<A >A:<A >G#8:<G#8 >F#8:<F#8 >F#8:<F#8 >G#:<G# A8.&A32.:>A&A32R16R64 <A8 A8 >A:<A >A8:<A8 >G#8:<G#8 >F#8:<F#8 >E:<E >C#2&C#8:<C#2&C#8 >C#8 <B8 A8 F#8 >C#2 C#8 <B8 A8 F#8 >C#2 C#8 <B8 A8 F# B1&B >A G#8 F#8 A E8 F#2 <A8 >E8 E2 E8 D8 C#8 D8 C# <B >E1 A8 G#8 F#8 G#8 A.&A16.:<A8 G#8 A8 >C#8 C#.&C#16.:<A8 E8 A8 >E8 F#. E&E32R16R64 C# <B1 >E1 <A2 F#8 G#8 A A2 D8 D2.&D8 B:E E >C#:<A B B8:G#8 A8 G#8 A2. A8 B8 A2.&A8:F#2.&F#8 D8 D8 F#. E8 E.R8 >E2 <B8 A8 G#8 C#8 F#2 >C#8:<F#8 G#8 A A B8 >C#&C#32R16R64 <A8 >C#2.&C#8 C#8 C#8:<A8 B8 >E. E:<B G#8 A B8 A1&A >C#8 D8:<B8 >C#8:<A8 >D8:<A8 >C# <A8 A F#8 B1&B F#.&F#16.:R32 B.&B16:R32 >D.&D16 D:<B >D:<A >D:<F# >C#8 C#&C#32R16R64 <B8 >C#2.&C#8 C#8 C#8:<A8 >C#8 F#. <B A8 A2.&A8 F#8 F#8 F#:D G# A8 >C#. <B1:G#1 >C#2R2 A:<A >A:<A A8.&A32.:>A. <A8 >A8:<A8 >A:<A >A.&A32:<A.&A32R16R64 A8 >A:<A >G#:<G# >F#8:<F#8 >E.:<E. >C#2:<C#2 >C#8 <B8 A8 F#8 A B8 >C#.&C#32R16R64 <F#8 A B8 >C#.&C#32R16R64 <F#8 A B8 >C#2&C#8 <E8 A8 >C#8 F#8 A8 G#8 F#8 C#8 A:<A >A:<A >A:<A >G#8:<G#8 >F#8:<F#8 >F#8:<F#8 >G#:<G# A8.&A32.:>A&A32R16R64 <A8 A8 >A:<A >A8:<A8 >G#8:<G#8 >F#8:<F#8 >E:<E >C#2&C#8:<C#2&C#8 >C#8 <B8 A8 F#8 >C#2 C#8 <B8 A8 F#8 >C#2 C#8 <B8 A8 F# B1&B&B32.:R1R8 >A:<A >G#:<G# >F#:<F# >F#:A:<A >F#:A:<A A8.&A32.:>F#8.&F#32.:A. <A8:<A8 >>F#8:A8:<A8 >F#:A:<A >F#.&F#32:A.&A32:<A.&A32R16R64 A8:<A8 >>F#:A:<A >E:G#:<G# >D8:F#8:<F#8 >C#.:E.:<E. A2:>C#2:<C#2 >C#8 <B8 A8 F#8 A B8 >C#.&C#32:<A.&A32R16R64 F#8 A B8 >C#.&C#32:<A.&A32R16R64 F#8 A B8 >C#2&C#8:<A2&A8 E8 A8 >C#8:<A8 >F#8:D8 A8:F#8 G#8:C#8 D8:F#8:<A8 A8:>C#8:<C#8 >F#:A:<A >F#:A:<A >F#:A:<A >E8:G#8:<G#8 >D8:F#8:<F#8 >D8:F#8:<F#8 >E:G#:<G# A8.&A32.:>F#8.&F#32.:A&A32R16R64 <A8:E8 A8:E8 >F#:A:<A >F#8:A8:<A8 >E8:G#8:<G#8 >D8:F#8:<F#8 >C#:E:<E A2&A8:>C#2&C#8:<C#2&C#8 >C#8 <B8 A8 F#8 >C#2:<A2 >C#8 <B8 A8 F#8 >C#2:<A2 >C#8 <B8 A8 C#&C#64:F# F#.&F#32:R32 B1&B8.&B64 >A G#8 F#8 A E8 F#2 <A8 >E8 E2 E8 D8 C#8 D8 C# <B >E1 A8 G#8 F#8 G#8 A.&A16.:<A8 G#8 A8 >C#8 C#.&C#16.:<A8 E8 A8 >E8 F#. E&E32R16R64 C# <B1 B1 F#2.&F#8.:R32 A2.&A16.&A64:R32 >C#2.&C#8 
#NewTrack

T138 <F#8 A8 >C#&C#32R16R64 <A. D8 F#8 >D8 F# <A. E B >E <B >G#2&G#8R. <F#8:<F#8 >A8 >C#&C#32R16R64 <A. D8 F#8 >D8 F# <A. E B >E <B G#2 E2 F# A >C# <A8 F#8 D F# A F# E G# B G#8 E8 A2:>C#2:<E2 B:G# B8 A8 F# A >C# <A8 F#8 D F# A F# B2:E2 B:G# G#8 >E1&E8 <F#:<F# >A >C# <A8 F#8 D:<D >F# A F# E:<E >G# B G#8 E8 A2:>C#2:<E2 B:G# B8 A8 F#2:>C#2:<C#2 A2:>C#2:<C#2 D2:F#2:<A2 >D2:F#2:<A2 >E2:G#2:<B2 >G#:E >C#8:<A8 >D8 <B.:G#. >E8 D8 C#8 <B8 >C#8 <<D >D8 A8 >D <A8 E8 <E >E8 A8 >C# <A8 E8 <A >E8 B8 >E8 C#8 <A8 E8 <F# >C#8 A8 >C#. <F#8 <B >F#8 B8 >C#8 D8 <B8 D8 D8 F#8 >D8 F# <A E8 <E8 B8 >E8 G#8 E8 G#8 B8 >E8 <B8 >E8 G#8 B8 >C#.&C#16:R8 E8 F#8 G#8 O2D8 A8 >D8 A8 >D8 C#8 <A8 D8 <E8 B8 >E8 A8 >C#8 <B8 A8 E8 <A8 >C#8 E8 B8 >E8 C#8 <A8 E8 <F#8 >C#8 F#8 A8 >C# <A8 F#8 <A8 >E8 A8 B8 >C# <A8 E8 <E8 B8 >E8 B8 >E <B8 <B8 C#8 F#8 A8 >C#8 E8 F#8 A8 >C#8 <<A8 >C#8 F#8 A8 E <F# D8 A8 >D8 A8 >D8 <A8 D8 <A8 E8 B8 >E8 A8 >C#8 <A8 E8 <B8 A8 >C#8 E8 B8 >E8 C#8 <A8 E8 <F#8 >C#8 F#8 A8 >C# <F#8 <A8 >C#8 F#8 A8 B8 >C# <B8 E8 <A8 >E8 A8 B8 >E C#8 <A8 <E8 >E8 G#8 B. G# >E2&E8 C#8 F#8 A8 <F#8 A8 >C#&C#32R16R64 E. <D8 F#8 >D8 F# <A. E B >E <B >G#1 <<F#8 >A8 >C#&C#32R16R64 <A. D8 F#8 >D8 F# <A. E B >E <B G#2 E2 F# A >C# <A8 F#8 D F# A F# E G# B G#8 E8 A2:>C#2:<E2 B:G# B8 A8 F# A >C# <A8 F#8 D F# A F# B2:E2 B:G# G#8 >E1&E8 <F#:<F# >A >C# <A8 F#8 D:<D >F# A F# E:<E >G# B G#8 E8 A2:>C#2:<E2 B:G# B8 A8 F#2:>C#2:<C#2 A2:>C#2:<C#2 D2:F#2:<A2 >D2:F#2:<A2 >E2:G#2:<B2 >G#:E >C#8:<A8 >D8 <B.:G#. >E8 D8 C#8 <B8 >C#8 <<D >D8 A8 >D <A8 E8 <E >E8 A8 >C# <A8 E8 <A >E8 B8 >E8 C#8 <A8 E8 <F# >C#8 A8 >C#. <F#8 <B >F#8 B8 >C#8 D8 <B8 D8 D8 F#8 >D8 F# <A E8 <E8 B8 >E8 G#8 E8 G#8 B8 >E8 <B8 >E8 G#8 B8 >C#.&C#16:R8 E8 F#8 G#8 O2D8 A8 >D8 A8 >D8 C#8 <A8 D8 <E8 B8 >E8 A8 >C#8 <B8 A8 E8 <A8 >C#8 E8 B8 >E8 C#8 <A8 E8 <F#8 >C#8 F#8 A8 >C# <A8 F#8 <A8 >E8 A8 B8 >C# <A8 E8 <E8 B8 >E8 B8 >E <B8 <B8 C#8 F#8 A8 >C#8 E8 F#8 A8 >C#8 <<A8 >C#8 F#8 A8 E <F# D8 A8 >D8 A8 >D8 <A8 D8 <A8 E8 B8 >E8 A8 >C#8 <A8 E8 <B8 A8 >C#8 E8 B8 >E8 C#8 <A8 E8 <F#8 >C#8 F#8 A8 >C# <F#8 <A8 >C#8 F#8 A8 B8 >C# <B8 E8 <A8 >E8 A8 B8 >E C#8 <A8 <E8 >E8 G#8 B. G# >C#:E:<A >C#8 <E8 A8 C#8 <A8 F#8 D8 A8 >D8 A8 >D8 C#8 <A8 D8 <E8 B8 >E8 A8 >C#8 <B8 A8 E8 <A8 >C#8 E8 B8 >E8 C#8 <A8 E8 <F#8 >C#8 F#8 A8 >C# <A8 F#8 <A8 >E8 A8 B8 >C# <A8 E8 <E8 B8 >B8 >C#8 E C#8 <E8 <C#8 F#8 A8 >C#8 E8 F#8 A8 >C#8 <<A8 >C#8 F#8 A8 >C# <C# <D8 A8 >D8 A8 >D8 <A8 D8 <A8 E8 B8 >E8 A8 >C#8 <B8 A8 E8 <A8 >C#8 E8 B8 >E8 C#8 <A8 E8 <F#8 >C#8 F#8 A8 >C# <A8 F#8 C#8 F#8 A8 B8 >C# <B8 E8 <A8 >E8 A8 B8 >E C#8 <A8 <E8 >E8 G#8 B. G# >E2&E8 C#8 F#8 A8 <F#8 A8 >C#&C#32R16R64 E. <D8 F#8 >D8 F# <A. E B >E <B >G#1 <<F#8 >A8 >C#&C#32R16R64 <A. D8 F#8 >D8 F# <A. E B >E <B G#2 E.&E16.:R.R16 A1:R16 >C#2.&C#8. 