#Title 安静
#trackName °²¾²
#NewTrack
#trackName Voice
#instrumentName Microsoft GS ²¨±íÈí¼þºÏ³ÉÆ÷
T72 R1R1R1R1R1R1R1R1R8 >D8 D8 D8 D8 C8 <A#8 A8 >C8 C8 C8 <A#. F8 >D8 C8 <A#8 A#8 A#. F8 >D8 C8 <A#8 A#8 >C2&C16R8R32. D8 D8 D8 D8 C8 <A#8 A8 >C8 C8 C8 <A#. F8 >D8 C8 <A#8 A#8 A#. F8 >D8 C8 <A#8 A#8 >C D16 D#&D#32R8R64 D#8 D#8 D#8 D#8 D8 C8 <A#8 A#8 A#8 >C8 C2&C16R8R32. <F8 >F8 F8 F8 D#8 D8 C8 C8 C8 D8 D2 <G8 >D#8 D8 D#8 D C8 <A#8 A8 A#8 A8 A#8 F >D D8 D#8 D8 D#8 D C8 <A#8 >C1&C64:F1&F64R8.R32 <F8 >D8 D#8 F8 D#8 D8 F16.&F64R8 <F8 >D8 D#8 F8 D#8 D8 F16.&F64R8 <F8 >D8 D#8 F8 D#8 D8 <A#8 >C8 C8 C8 D <A#&A#16&A#64R8R32 >F8 F8 <A#8 A#8 A8 A#8 A#16.&A#64R8 >F8 F8 <A#8 A#8 A8 A#8 A#16.&A#64R8 >D#8 D#8 D8 D8 C8 C8 <A#16.&A#64R8 >D#8 D#8 D8 D8 C8 C8 <A#16.&A#64R8 F8 >D8 D#8 F8 D#8 D8 F16.&F64R8 <F8 >D8 D#8 F8 D#8 D8 F16.&F64R8 <F8 >D8 D#8 F8 D#8 D8 <A#8 >C8 C8 C8 D <A#&A#16&A#64R8R32 >F8 F8 <A#8 A#8 A8 A#8 A#16.&A#64R8 >F8 F8 <A#8 A#8 A8 A#8 A#16.&A#64R8 >D#8 D#8 D8 D8 C8 C8 <A#16.&A#64R8 >D#8 D8 C8 <A#8 G8 A#8 A#2.&A#32.R1R1R1R.R16 >D8 D8 D8 D8 C8 <A#8 A8 >C8 C8 C8 <A#. F8 >D8 C8 <A#8 A#8 A#. F8 >D8 C8 <A#8 A#8 >C2&C16R8R32. D8 D8 D8 D8 C8 <A#8 A8 >C8 C8 C8 <A#. F8 >D8 C8 <A#8 A#8 A#. F8 >D8 C8 <A#8 A#8 >C D16 D#&D#32R8R64 D#8 D#8 D#8 D#8 D8 C8 <A#8 A#8 A#8 >C8 C2&C16R8R32. <F8 >F8 F8 F8 D#8 D8 C8 C8 C8 D8 D2 <G8 >D#8 D8 D#8 D C8 <A#8 A8 A#8 A8 A#8 F >D D8 D#8 D8 D#8 D C8 <A#8 >C1&C64:F1&F64R8.R32 <F8 >D8 D#8 F8 D#8 D8 F16.&F64R8 <F8 >D8 D#8 F8 D#8 D8 F16.&F64R8 <F8 >D8 D#8 F8 D#8 D8 <A#8 >C8 C8 C8 D <A#&A#16&A#64R8R32 >F8 F8 <A#8 A#8 A8 A#8 A#16.&A#64R8 >F8 F8 <A#8 A#8 A8 A#8 A#16.&A#64R8 >D#8 D#8 D8 D8 C8 C8 <A#16.&A#64R8 >D#8 D#8 D8 D8 C8 C8 <A#16.&A#64R8 F8 >D8 D#8 F8 D#8 D8 F16.&F64R8 <F8 >D8 D#8 F8 D#8 D8 F16.&F64R8 <F8 >D8 D#8 F8 D#8 D8 <A#8 >C8 C8 C8 D <A#&A#16&A#64R8R32 >F8 F8 <A#8 A#8 A8 A#8 A#16.&A#64R8 >F8 F8 <A#8 A#8 A8 A#8 A#16.&A#64R8 >D#8 D#8 D8 D8 C8 C8 <A#16.&A#64R8 >D#8 D8 C8 <A#8 G8 A#8 A#2.&A#32.R1R.R16 G8 >E8 F8 G8 F8 E8 G16.&G64R8 <G8 >E8 F8 G8 F8 E8 G16.&G64R8 <G8 >E8 F8 G8 F8 E8 C8 D8 D8 D8 E C&C16&C64R8R32 G8 G8 C8 C8 <B8 >C8 C16.&C64R8 G8 G8 C8 C8 <B8 >C8 C16.&C64R8 F8 F8 E8 E8 D8 D8 C16.&C64R8 F8 F8 E8 E8 D8 D8 C16.&C64R8 <G8 >E8 F8 G8 F8 E8 G16.&G64R8 <G8 >E8 F8 G8 F8 E8 G16.&G64R8 <G8 >E8 F8 G8 F8 E8 C8 D8 D8 D8 E C&C16&C64R8R32 G8 G8 C8 C8 <B8 >C8 C16.&C64R8 G8 G8 C8 C8 <B8 >C8 C16.&C64R8 F8 F8 E8 E8 D8 D8 C16.&C64R8 F8 E8 D8 C8 <A8 >C8 C2.&C32. 
#NewTrack
#trackName Piano
#instrumentName Microsoft GS ²¨±íÈí¼þºÏ³ÉÆ÷
T72 D8:<A#8 F8 >D8 D#:<F >D8 <A#8 >C16 D8. <F8 >D8 D#:<F >D8 <A#8 >C16 D8. <F8 >D8:<A#8 >D#:<A# >D8 <A#8 >C16 C&C16 C:<A# A A8 A#16 >C16 D8:<A#8 F8 >D8 D#:<F >D8 <A#8 >C16 D8. <F8 A#8 A#:>D#:<F >D8 <A#8 >C16 <A#8&A#32.:>D16 D8 <F8 >D8 D#:<F >D8 <A#8 >C16 C&C16:<F&F16 >C:<A# >C:<A A8 A#8 >D8:<A#8 F8 >D8:<A#8 F8 >D8:<A#8 F8 >C8:<A8 F8 >D8:<A#8 F8 >D8:<A#8 F8 >D8:<A#8 F8 >C8:<A8 F8 >D8:<A#8 F8 >D8:<A#8 G8 >D8:F8:<A#8 G8 >D8:<A#8 G8 >D#8:<A#8 G8 >D#8:<A#8 G8 >C:<A# >C:F:<A >D8:<A#8 F8 >D8:<A#8 F8 >D8:<A#8 F8 >C8:<A8 F8 >D8:<A#8 F8 >D8:<A#8 F8 >D8:<A#8 F8 >C8:<A8 F8 >F8:<A#8 G8 >F8:<A#8 G8 >D#8:<A#8 G8 >D8:<A#8 G8 >C8:<F#8 D#8 >D8:<F#8 D#8 >D#8:<F#8 D#8 >F8:<A#8 G8 >D#8:<A#8 G8 >D#8:<A#8 G8 >D#8:<A#8 G8 >D#8:<A#8 G8 >C8:<A#8 F8 >C8:<A#8 F8 >C8:<A8 F8 >C8:<A8 F8 >F8:C8 <A8 >F8:C8 <A8 >F8:C8 <A8 >F8:C8 <A8 >C8:<A8 F8 >C8:<A8 F8 >F8:<A8 >C8 D8:<G8 B8 >D#8:<A#8 G8 >D#8:<A#8 G8 >D#8:<A#8 G8 >D#8:<A#8 G8 >C8:<A#8 F8 >C8:<A#8 F8 >F8:C8 <F8 >F8:C8 <F8 >D8:<A#8 G8 >D8:<A#8 G8 >G8:<A#8 G8 >D8:<A#8 G8 >C8:<A#8 F8 >C8:<A#8 F8 >C8:<A8 F8 >C:F:<A >D8:<A#8 F8 >D8:<A#8 >F:<A# F8 >D8:<A#8 F8 >D8:<A8 F8 >D8:<A8 A:>F:<F F8 >D8:<A8 F8 >D8:<A#8 F8 >D8:<A#8 >F:<A# F8 >D8:<A#8 F8 >D8:<A8 F8 >D8:<A8 F8 >F8:<A8 F8 >D8:<A8 F8 >D8:<A#8 G8 >D8:<A#8 G8 >G8:<A#8 G8 >D8:<A#8 G8 >C8:<A#8 F8 >C8:<A#8 F8 >D8:<A#8 F8 >F8:<A#8 F8 >D#8:<A#8 G8 >D#8:<A#8 G8 >D#8:<A#8 G8 >D#8:<A#8 G8 >C8:<A#8 F8 >C8:<A#8 F8 >C8:<A8 F8 >C:<A >D8:<A#8 F8 >D8 <A#:>F:<F F8 >D8:<A#8 F8 >D8:<A8 F8 >D8:<A8 F8 >F8:<A8 F8 >D8:<A8 F8 >D8:<A#8 F8 >D8:<A#8 F8 >F8:<A#8 F8 >D8:<A#8 F8 >D8:<A8 F8 >D8:<A8 F8 >F8:<A8 F8 >D8:<A8 F8 >D8:<A#8 G8 >D8:<A#8 G8 >G8:<A#8 G8 >D8:<A#8 G8 >C8:<A#8 F8 >C8:<A#8 F8 >D8:F8:<A#8 F8 >D8:<A#8 F8 >D#8:<A#8 G8 >D#8:<A#8 G8 >D#8:<A#8 G8 >D#8:<A#8 G8 >C2:<A#2 A2:>C2:<F2 >A#8.&A#32:F8.&F32:>D8.&D32R8R64 <A#:>D# D8 <A#8 >C16 D&D32R8R64 <A#:>D# D8 <A#8 >C16 D&D32R8R64 <A#:>D# <A#8:>D8 <A#8:F8 >C16:<F16 >C&C32:<F&F32R8R64 F&F16.RR64 D8:<A#8 F8 >D8:<A#8 F8 >D8:<A#8 F8 >C8:<A8 F8 >D8:<A#8 F8 >D8:<A#8 F8 >D8:<A#8 F8 >C8:<A8 F8 >D8:<A#8 F8 >D8:<A#8 G8 >D8:F8:<A#8 G8 >D8:<A#8 G8 >D#8:<A#8 G8 >D#8:<A#8 G8 >C:<A# >C:F:<A >D8:<A#8 F8 >D8:<A#8 F8 >D8:<A#8 F8 >C8:<A8 F8 >D8:<A#8 F8 >D8:<A#8 F8 >D8:<A#8 F8 >C8:<A8 F8 >F8:<A#8 G8 >F8:<A#8 G8 >D#8:<A#8 G8 >D8:<A#8 G8 >C8:<F#8 D#8 >D8:<F#8 D#8 >D#8:<F#8 D#8 >F8:<A#8 G8 >D#8:<A#8 G8 >D#8:<A#8 G8 >D#8:<A#8 G8 >D#8:<A#8 G8 >C8:<A#8 F8 >C8:<A#8 F8 >C8:<A8 F8 >C8:<A8 F8 >F8:C8 <A8 >F8:C8 <A8 >F8:C8 <A8 >F8:C8 <A8 >C8:<A8 F8 >C8:<A8 F8 >F8:<A8 >C8 D8:<G8 B8 >D#8:<A#8 G8 >D#8:<A#8 G8 >D#8:<A#8 G8 >D#8:<A#8 G8 >C8:<A#8 F8 >C8:<A#8 F8 >F8:C8 <F8 >F8:C8 <F8 >D8:<A#8 G8 >D8:<A#8 G8 >G8:<A#8 G8 >D8:<A#8 G8 >C8:<A#8 F8 >C8:<A#8 F8 >C8:<A8 F8 >C:F:<A >D8:<A#8 F8 >D8:<A#8 >F:<A# F8 >D8:<A#8 F8 >D8:<A8 F8 >D8:<A8 A:>F:<F F8 >D8:<A8 F8 >D8:<A#8 F8 >D8:<A#8 >F:<A# F8 >D8:<A#8 F8 >D8:<A8 F8 >D8:<A8 F8 >F8:<A8 F8 >D8:<A8 F8 >D8:<A#8 G8 >D8:<A#8 G8 >G8:<A#8 G8 >D8:<A#8 G8 >C8:<A#8 F8 >C8:<A#8 F8 >D8:<A#8 F8 >F8:<A#8 F8 >D#8:<A#8 G8 >D#8:<A#8 G8 >D#8:<A#8 G8 >D#8:<A#8 G8 >C8:<A#8 F8 >C8:<A#8 F8 >C8:<A8 F8 >C:<A >D8:<A#8 F8 >D8 <A#:>F:<F F8 >D8:<A#8 F8 >D8:<A8 F8 >D8:<A8 F8 >F8:<A8 F8 >D8:<A8 F8 >D8:<A#8 F8 >D8:<A#8 F8 >F8:<A#8 F8 >D8:<A#8 F8 >D8:<A8 F8 >D8:<A8 F8 >F8:<A8 F8 >D8:<A8 F8 >D8:<A#8 G8 >D8:<A#8 G8 >G8:<A#8 G8 >D8:<A#8 G8 >C8:<A#8 F8 >C8:<A#8 F8 >D8:F8:<A#8 F8 >D8:<A#8 F8 >D#8:<A#8 G8 >D#8:<A#8 G8 >D#8:<A#8 G8 >D#8:<A#8 G8 >C2:<A#2 A2:>C2:<F2 >D8:<A#8 F8 >D8:<A#8 F8 >D8:<A#8 F8 >D8:<A#8 F8 A8:>C8:<F8 A16.&A64:>C16.&C64:<F16.&F64R8 B:>D:<G >C8:E8:<A8 >C:F:<A >E8:G8:D8 C8 E8:G8:D8 C8 E8:G8:D8 C8 E8:G8:D8 C8 G8:E8 <B8 >G8:E8 <B8 >G8:E8 <B8 >G8:E8 <B8 >E8:G8:C8 <B8 >E8:G8:C8 <B8 >E8:G8:C8 <B8 >E8:G8:C8 <B8 >E8:C8 <G8 >E8:C8 <G8 >E8:C8 <G8 >E8:C8 <G8 A8:>C8:<G8 F8 A8:>C8:<G8 F8 A8:>C8:<G8 F8 A8:>C8:<G8 F8 >C8:E8:<E8 G8 >E8:C8 <G8 >E8:G8:C8 <B8 >E8:G8:C8 <B8 >F8:C8 <A8 >F8:C8 <A8 >F8:C8 <A8 >F8:C8 <A8 >C:F:<A >C:F:<A A:>C:E:<F A:B:>D:<G >E8:C8 <G8 >E8:C8 <G8 >E8:C8 <G8 >E8:C8 <G8 >E8:<B8 G8 >E8:<B8 G8 >E8:<B8 G8 >E8:<B8 G8 >E8:G8:C8 <B8 >E8:G8:C8 <B8 >E8:G8:C8 <B8 >E8:G8:C8 <B8 >E8:C8 <G8 >E8:C8 <G8 >E8:C8 <G8 >E8:C8 <G8 A8:>C8:<G8 F8 A8:>C8:<G8 F8 A8:>C8:<G8 F8 A:>C:<G >D:E:<G >E8:C8 <G8 >E8:G8:C8 <B8 >E8:G8:C8 <B8 >F8:C8 <A8 >F8:C8 <A8 >F8:C8 <A8 >F8:C8 <A8 >C2&C8&C32.:F2&F8&F32.:<A2&A8&A32.RR16 >E8:C8 <G8 >E8:C8 F:C E8 C8 D16 E8. <G8 >E8:C8 F:<G >E8 C8 D16 E8. <G8 >E8:C8 F:C E8 C8 D16 E8. <G8 >E8:C8 C:F:<G >E8 C8 D16 E1. 
#NewTrack
#trackName Òô¹ì 3
#instrumentName Microsoft GS ²¨±íÈí¼þºÏ³ÉÆ÷
T72 <<A#.:<A#. >A#.&A#16&A#64:<A#.&A#16&A#64R8R32 >D#. D#.&D#16&D#64:>D#.&D#16&D#64R8R32 <G. G2&G8 F8 >F C8 <F8 >C8 F <A#.:<A#. >A#. A# D#. D#.&D#16&D#64:>D#.&D#16&D#64R8R32 <G. G2&G8 F8 >F C8 <F8 >C8 F <A#2.:<A#2. >A G2. F D#2. D C2 F2 A#2.:<A#2. >A G2. F D#2&D#8&D#32.RR16 D#2 D# D# >C2.&C8:<C2.&C8 C8 F2. D#16.&D#64R8 >D1:<D1 G2 A:<A >B:<B >>C1:<C1 D2.&D8 D8 D#2 D#:>D# D#8 <D#8 F2 F F:<F >A#.:<A#. >A#2&A#8:<A#2&A#8 >A.:<A. >A2&A8:<A2&A8 >G.:<G. >G2&G8:<G2&G8 >F2.:<F2. >F8 <F8 >D#2. >D#8 <D#8 D2 G2 >C2&C8:<C2&C8 C8 >C8 <C8 F2:<F2 >F F8 <F8 >A#.:<A#. >A#2&A#8:<A#2&A#8 >A2.:<F2. >A8 <F8 >G2.:<G2. >G:<G >F2.:<F2. >F8 <F8 >D#2 >D# <D# >D2:<D2 G2 >C1:<C1 F2 F2 A#8 >F8 >D2. <D#8 F8 >D2. <<G8 >F8 A#2. <F8 >C8 G8 A#8 A8.&A32RR64 <A#2.:<A#2. >A G2. F D#2. D C2 F2 A#2.:<A#2. >A G2. F D#2&D#8&D#32.RR16 D#2 D# D# >C2.&C8:<C2.&C8 C8 F2. D#16.&D#64R8 >D1:<D1 G2 A:<A >B:<B >>C1:<C1 D2.&D8 D8 D#2 D#:>D# D#8 <D#8 F2 F F:<F >A#.:<A#. >A#2&A#8:<A#2&A#8 >A.:<A. >A2&A8:<A2&A8 >G.:<G. >G2&G8:<G2&G8 >F2.:<F2. >F8 <F8 >D#2. >D#8 <D#8 D2 G2 >C2&C8:<C2&C8 C8 >C8 <C8 F2:<F2 >F F8 <F8 >A#.:<A#. >A#2&A#8:<A#2&A#8 >A2.:<F2. >A8 <F8 >G2.:<G2. >G:<G >F2.:<F2. >F8 <F8 >D#2 >D# <D# >D2:<D2 G2 >C1:<C1 F2 F2 <A#1 >G8:<G8 >G16.&G64:<G16.&G64R8 >G:<G >G8:<G8 >G:<G >>C.&C16:<C2.&C8 C8 <B2 B >B8 <B8 A2.&A8 A8 G2. >G8 <G8 F2.&F8 F8 >E2 <A2 >>D2.:<D2. >D8 <D8 <G. >G8 <G >G8 <G8 >>C8.&C32:<C2. >C8 <C8 <B2. >B8 <B8 A2. >A8 <A8 G2. >G8 <G8 F2.&F8 F8 >E2 <A. A8 >D2.&D8 D8 G2&G8&G32.RR16 C. C.&C16&C64R8R32 F. F.&F16&F64R8R32 A. A.&A16&A64R8R32 F. F.&F16&F64R8R32 <C1&C.&C16 