#Title 你的名字《三叶主题曲》
#NewTrack A
t124
r4r4r4o5c8d8|e4g4f4e4|d4c4e1r4o4g8a8|o5c4d4e4o4b4|o5c4o4g4a1r4|o5c8d8|e4g4f4e4|d4c4e1r4o4g8a8|o5c4d4e4o4b4|o5c4o4g4a1.|o5c8g8c8g8c2.c8g8c8g8c4|c8g8c8g8c2.|c8d8c8e8c4|c8g8c8g8c2.|c8g8c8g8c4|c8g8c8g8c2|c8c8b8g8a8e8g8o4b8|o5c8g8c8g8c2.c8g8c8g8c4|c8g8c8g8c2.c8d8c8e8c4|c8d8c8e8c2.c8d8c8e8c4|c8d8c8e8c2.r4r4r4|g4o4g4o5c4o4g4|o5d4o4g4o5e4:c4o4g4|o5g4:c4o4a4o5c4o4a4|o5d4o4a4o5f8:c8:o4g8o5e8:c8:o4g8o5d8:c8:o4g8o5c8:o4g8|r4f4g4f4|a4f4o5c4:o4g4f4|o5e4:c4o4g4o5c4o4g4|o5d4:c4o4g4o5c4o4g4|o5g4:c4:o4a4g4o5c4o4g4|o5d4o4g4o5e4:c4o4g4|o5g4:d4:c4o4a4o5c4o4a4|o5d4o4a4o5f8:c8:o4g8o5e8:c8:o4g8o5d8:c8:o4g8o5c8:o4g8|r4f4g4f4|a4f4o5c4:o4g4f4|o5e4:c4:o4g4g4o5c4o4g4|o5d1.:o4a1.:g1.r4o5c8d8|e4g4f4e4|d4c4e1|r4o4g8a8|o5c4d4e4o4b4|o5c4o4g4a1r4o5c8d8|e4g4f4e4|d4c4e1r4o4g8a8|o5c4:o4f4b4o5d4:o4g4o5c4|e4:o4a+4:g4o5d4g4:c4:o4a4o5f4|a4:c4g4c1:o5g4:d4a+4|a6:d6g6a6o5d6a6g6|a6:d6g6a6o5d6a6g6|c+6g6a6c6a6g6|c+6f6g6c6a6g6|d6g6a6d6a6g6|d6g6a6d6a6g6|a6:c+6g6a6c6a6g6|d6g6a6a1.:e1.:d1.:a1.|r1|c8g8c8g8c2.c8g8c8g8c4c8g8c8g8c2.c8d8c8e8c4|c8g8c8g8c2.c8g8c8g8c4|c8g8c8g8c2|c8c8b8g8a8e8g8o4b8|o5c8d8c8e8c2.c8d8c8e8c4|c8d8c8e8c1.|c8g8c8e8c1|o4c8*14d8e8g8|a4e4g4d4|e4c4d8g8e1r4|e2o3g4o4c4|o3b4o4d4c4e4|d4g1r4c8d8e8g8|a4e4g4d4|e4c4d8g8e1r4|e2o3g4o4c4|o3b4o4d4c4e4|d4c1.r4|a8g8o5c8o4b8a8g8e8g8|d8e8c8d8o3a8o4c8d8e8|a8g8o5c8o4b8a8g8e8g8|a8o5c8d8e8d8c8o4a4|a8g8o5c8o4b8a8g8e8g8|d8e8c8d8o3a8o4c8d8e8|o5c4:o4c4g8a4e8g4|d8e4c8d4o3a4|o5c4:o4f4g8:e8a4:f4e8:c8g4:e4|d8:o3b8o4e4:c4c8:o3a8o4d4:o3b4a4|o5c4o4g8a4e8g4|d8e4c8d4o3a4|o5c4:o4g4g8:e8a4:e4e8:c8g4:e4|d8:o3b8o4c4:e4c8:o3a8o4d4:o3b4a4|o5c4o4g8a4e8g4|d8e4c8d4o3a4|o5c4o4g8o5d4c8e4|d8g4e8a4g8d1r4|d1|c12d12g12c12d12g12c12d12g12c12d12g12|c12d12g12c12d12g12c12d12g12c12d12g12|c12d12g12c12d12g12c12d12g12c12d12g12|c12d12g12c12d12g12c12d12g12c12d12g12|c12d12g12c12d12g12c12d12g12c12d12g12c12d12g12c12d12g12c12d12g12c12d12g12c12d12g12c12d12g12c12d12g12c12d12g12c12d12g12c12d12g12c12d12g12c12d12g12|

#NewTrack B
t124
r1|f2g2|e2f1r4r4|f2g2|e2f1r2|f2g2|e2f1r4r4|f2g2|e2f1.|o3f1|f1|a1|g1f1f1a1|g1f1f1a1|g1f1f1f1|f1o4c1:o3f1|g2o4o5d6c6d6|e1:o3a1|o4c2e2:c2|g1:o5f1|o5c2o4g2|e2r4d8c8|d1|c1|o5g2d6c6d6|o4e1.|g1.|o5c1c1|o4b1r1|f2g2|e2f1|r2|f2g2e2f1r2|f2g2|e2f1r2|c2:o5d2o4d2:o5e2|o4e2:o3g2o4g2:o3a2|o4g2:d2:o3a2o4b2:e2:o3g2|o4g2:e2:d2g2:e2:d2|g2:e2:d2g2:e2:d2|g2:e2:c+2g2:e2:c2|g2:e2:c+2g2:e2:c2|g2:e2:d2g2:e2:d2|g2:e2:d2g2:e2:d2|g1:e1:c+1|g1:e1:c+1|g1:e1:c+1|r1|o3f1f1a1g1|f1f1a1g1|f1f1f1f1|f1f1f2g2a2c1.|c2f2g2a2|o4c1c1|o3f2g2a2c1.|c2f2g2a2c1c1|c4:f4a4:f4d4:g4b4:g4|d4:e4g4:e4e4:a4b4:g4|c4:f4a4:f4d4:g4b4:g4|b4:e4g4:e4e4:a4o4e4:c4:o3g4|c4:f4a4:f4d4:g4b4:g4|d4:e4g4:e4e4:a4b4:g4|f4o4f4:o3f4f4o4f4:o3f4|f4o4f4:o3f4f4o4f4:o3f4|f4o4f4:o3f4f4o4f4:o3f4|f4o4f4:o3f4f4o4f4:o3f4|e4o4e4:o3e4e4o4e4:o3e4|e4o4e4:o3e4e4o4e4:o3e4|e4o4e4:o3e4e4o4e4:o3e4|e4o4e4:o3e4e4o4e4:o3e4|f8o4f8a8o5c8o4f8o3f8o4f8o3f4f8o4f8o3f8o4f8o3f8o4f8o3f8|f8o4f8o3c8a2:f2a4.:f4.|a4:c4a1.:c1.:f1.|a1:c1:f1|e2o4e2o3f2o4f2o3g2o4g2r2o3a2|e2o4e2o3f2o4f2o3g2o4g2r2o3a2|