# 千本樱
#NewTrack
T150V80>
D8.D8.C8D8.D8.C8D8.D8.C8D4F4D8.D8.C8D8.D8.C8D4A4G4A4G8A8D16C16D16C16G8A8D16C16D16C16G8A8D16C16D16C16F8E32.F32E32.D8C8G8A8D16C16D16C16G8A8D16C16D16C16G8A8>C8F8E16F16E16D16C8<A8G8A8D16C16D16C16G8A8D16C16D16C16G8A8D16C16D16C16F8E32.F32E32.D8C8D8C16D16F8D16F16G8G16A16>C16F16<A16>C16F8E32.F32E32.D8C8D4D8F8G8A8D16C16D16C16G8A8D16C16D16C16G8A8D16C16D16C16F8E32.F32E32.D8C8G8A8D16C16D16C16G8A8D16C16D16C16G8A8>C8F8E16F16E16D16C8<A8G8A8D16C16D16C16G8A8D16C16D16C16G8A8D16C16D16C16F8E32.F32E32.D8C8G8A16>C16D16C16<A16G16D8F8G8A8D8.D8.C8D2<D4D8.C16D8F8F8G8D4D8.C16D8C8<A8>C8D4D8.C16D8F8G8A8A4G16&G64A16.G16&G64F4D4D4D8.C16D8F8F8G8D4D8.C16D8C8C8<A8>D4D8.C16C8D8F8G8A4G16&G64A16.G16&G64F4D4F4E4D4C4C8C16D16<A8G8A2A8>C8D4G4E4F4E8C8D2F4E4D4C4C8C16D16<A8G8A4A8>C8D8D4D8F4G4E2.D8F8G8.G8.A8A4.A8>C8D8<G8F8A4D8F8G8.G8.A8A4.A8A+8A8G8F8F4D8F8G8.G8.A8A4.A8>C8D8<G8F8A4D8F8A+4A4G4F4G8A8E8C8D4D8F8G8.G8.A8A4.A8>C8D8<G8F8A4D8F8G8.G8.A8A4.A8A+8A8G8F8F4D8F8G8.G8.A8A4.A8>C8D8<G8F8A4D8F8A+4A4G4F4G8F8A8>C8D2<G8A8D16C16D16C16G8A8D16C16D16C16G8A8D16C16D16C16F8E32.F32E32.D8C8G8A8D16C16D16C16G8A8D16C16D16C16G8A8>C8F8E16F16E16D16C8<A8G8A8D16C16D16C16G8A8D16C16D16C16G8A8D16C16D16C16F8E32.F32E32.D8C8D8C16D16F8D16F16G8G16A16>C16F16<A16>C16F8E32.F32E32.D8C8D4D8F8G8A8D16C16D16C16G8A8D16C16D16C16G8A8D16C16D16C16F8E32.F32E32.D8C8G8A8D16C16D16C16G8A8D16C16D16C16G8A8>C8F8E16F16E16D16C8<A8G8A8D16C16D16C16G8A8D16C16D16C16G8A8D16C16D16C16F8E32.F32E32.D8C8G8A16>C16D16C16<A16G16D8F8G8A8D8.D8.C8D2<D4D8.C16D8F8F8G8D4D8.C16D8C8<A8>C8D4D8.C16D8F8G8A8A4G16&G64A16.G16&G64F4D4D4D8.C16D8F8F8G8D4D8.C16D8C8C8<A8>D4D8.C16C8D8F8G8A4G16&G64A16.G16&G64F4D4F4E4D4C4C8C16D16<A8G8A2A8>C8D4G4E4F4E8C8D2F4E4D4C4C8C16D16<A8G8A4A8>C8D8D4D8F4G4E2.D8F8G8.G8.A8A4.A8>C8D8<G8F8A4D8F8G8.G8.A8A4.A8A+8A8G8F8F4D8F8G8.G8.A8A4.A8>C8D8<G8F8A4D8F8A+4A4G4F4G8A8E8C8D4D8F8G8.G8.A8A4.A8>C8D8<G8F8A4D8F8G8.G8.A8A4.A8A+8A8G8F8F4D8F8G8.G8.A8A4.A8>C8D8<G8F8A4D8F8A+4A4G4F4G8F8A8>C8D2D8D8D8D8D8D8D16C16<A8G8G8G8G8G8G8G16F16D8D8D8D8D8D8D8D16C16<A8G8A16G16A16>C16D16F16A16>C16D16F16E8<D16F16A16F16D16A8A16F16D16A16F16D16A8A16F16D16A+16G16F16A+8A+16G16F16A+16G16F16A+8A+16G16F16A+16F16D16A+8A+16F16D16A+16F16D16A+8A+16F16D16G16E16C16G8G16E16C16A16E16C16A8A16E16C16A16F16D16A16>D16<A16F16D16G16F16D16A16>F16D16<A16F16A+16F16D16A+16>D16<A+16F16D16A+16F16D16A+16>F16E16D16<A+16>D16<A+16F16A+16>F16<A+16>D16F16A+16F16D16<A+16A+16G16D16<A+16>C4<C16E16G16>C16C+4<C+16F16G+16>C+16G16A16F16A16G16F16E16D16E16D16C16D16D16C16<A16G16A16G16F16A16G16F16E16F16D2D8E8F8A8G16A16>D16E16F16E16D16F16A4.>C8<A2<D8C8G8F8A8G8>D8C8G8F8>C16&C64C16.C16&C64C2<F8D16<A+16F16A+16>D16F16G8E16C16<G16>C16E16G16A8.G+8.A16G+16A2F4E4D4C4C8C16D16<A8G8A2A8>C8D4G4E4F4E8C8D2F4E4D4C4C8C16D16<A8G8A4A8>C8D8D4D8F4G4E2.D8F8G8.G8.A8A4.A8>C8D8<G8F8A4D8F8G8.G8.A8A4.A8A+8A8G8F8F4D8F8G8.G8.A8A4.A8>C8D8<G8F8A4D8F8A+4A4G4F4G8A8G8A8A4E8G8A8.A8.B8B4.B8>D8E8<A8G8B4E8G8A8.A8.B8B4.B8>C8<B8A8G8G4E8G8A8.A8.B8B4.B8>D8E8<A8G8B4E8G8>C4<B4A4G4A8G8B8>D8E4<E8G8A8B8E16D16E16D16A8B8E16D16E16D16A8B8E16D16E16D16G8F+32.G16&G64E8D8A8B8E16D16E16D16A8B8E16D16E16D16A8B8>D8G8F+16G16F+16E16D8<B8A8B8E16D16E16D16A8B8E16D16E16D16A8B8E16D16E16D16G8F+32.G16&G64E8D8E8D16E16G8E16G16A8A16B16>D16G16<B16>D16G8F+32.G32F+32.E8D8E4E8G8A8B8E16D16E16D16A8B8E16D16E16D16A8B8E16D16E16D16G8F+32.G16&G64E8D8A8B8E16D16E16D16A8B8E16D16E16D16A8B8>D8G8F+16G16F+16E16D8<B8A8B8E16D16E16D16A8B8E16D16E16D16A8B8E16D16E16D16G8F+32.G16&G64E8D8A8B16>D16E16D16<B16A16E8G8A8B8E8.E8.D8E2E8.E8.D8E4.&E16&E64

#NewTrack
T150V80
D8.D8.D8D8.D8.D8D8.D8.D8D8.D8.D8D8.D8.D8D8.D8.D8D4D4C4C4O2A+8>A+8<A+8>A+8C8>C8<C8>C8<D8>D8<D8>D8<D8>D8<D8>D8<<A+8>A+8<A+8>A+8C8>C8<C8>C8<D8>D8<D8>D8<D8>D8<D8>D8<<A+8>A+8<A+8>A+8C8>C8<C8>C8<D8>D8<D8>D8<D8>D8<D8>D8<<A+8>A+8<A+8>A+8C8>C8<C8>C8<D8>D8<D8>D8<D8>D8<D8>D8<<A+8>A+8<A+8>A+8C8>C8<C8>C8<D8>D8<D8>D8<D8>D8<D8>D8<<A+8>A+8<A+8>A+8C8>C8<C8>C8<D8>D8<D8>D8<D8>D8<D8>D8<<A+8>A+8<A+8>A+8C8>C8<C8>C8<D8>D8<D8>D8<D8>D8<D8>D8<<A+8>A+8<A+8>A+8C8>C8<C8>C8<D8>D8<D8>D8<D8>D8<D8>D8<D8>D8<D8>D8<D8>D8<D8>D8<<A+8>A+8<A+8>A+8C8>C8<C8>C8<D8>D8<D8>D8<D8>D8<D8>D8<<A+8>A+8<A+8>A+8C8>C8<C8>C8<D8>D8<D8>D8<D8>D8<D8>D8<<A+8>A+8<A+8>A+8C8>C8<C8>C8<D8>D8<D8>D8<D8>D8<D8>D8<<A+8>A+8<A+8>A+8C8>C8<C8>C8<<A+8>A+8<A+8>A+8<A+8>A+8<A+8>A+8F8>F8<F8>F8<F8>F8<F8>F8<<A+8>A+8<A+8>A+8C8>C8<C8>C8<D8>D8<D8>D8<D8>D8<D8>D8<<A+8>A+8<A+8>A+8<A+8>A+8<A+8>A+8F8>F8<F8>F8<F8>F8<F8>F8<<A+8>A+8<A+8>A+8C8>C8<C8>C8<<A8>A8<A8>A8>E2<D8>D8<D8>D8<<A+8>A+8<A+8>A+8C8>C8<C8>C8<F8>F8<F8>F8<D8>D8<D8>D8<<A+8>A+8<A+8>A+8C8>C8<C8>C8<F8>F8<F8>F8<D8>D8<D8>D8<<A+8>A+8<A+8>A+8C8>C8<C8>C8<F8>F8<F8>F8<<A+8>A+8<A+8>A+8C8>C8<C8>C8<<A+8>A+8<A+8>>C8D2<D8>D8<D8>D8<<A+8>A+8<A+8>A+8C8>C8<C8>C8<F8>F8<F8>F8<D8>D8<D8>D8<<A+8>A+8<A+8>A+8C8>C8<C8>C8<F8>F8<F8>F8<D8>D8<D8>D8<<A+8>A+8<A+8>A+8C8>C8<C8>C8<F8>F8<F8>F8<<A+8>A+8<A+8>A+8C8>C8<C8>C8<<A+8>A+8<A+8>>C8D2<<A+8>A+8<A+8>A+8C8>C8<C8>C8<D8>D8<D8>D8<D8>D8<D8>D8<<A+8>A+8<A+8>A+8C8>C8<C8>C8<D8>D8<D8>D8<D8>D8<D8>D8<<A+8>A+8<A+8>A+8C8>C8<C8>C8<D8>D8<D8>D8<D8>D8<D8>D8<<A+8>A+8<A+8>A+8C8>C8<C8>C8<D8>D8<D8>D8<D8>D8<D8>D8<<A+8>A+8<A+8>A+8C8>C8<C8>C8<D8>D8<D8>D8<D8>D8<D8>D8<<A+8>A+8<A+8>A+8C8>C8<C8>C8<D8>D8<D8>D8<D8>D8<D8>D8<<A+8>A+8<A+8>A+8C8>C8<C8>C8<D8>D8<D8>D8<D8>D8<D8>D8<<A+8>A+8<A+8>A+8C8>C8<C8>C8<D8>D8<D8>D8<D8>D8<D8>D8<D8>D8<D8>D8<D8>D8<D8>D8<<A+8>A+8<A+8>A+8C8>C8<C8>C8<D8>D8<D8>D8<D8>D8<D8>D8<<A+8>A+8<A+8>A+8C8>C8<C8>C8<D8>D8<D8>D8<D8>D8<D8>D8<<A+8>A+8<A+8>A+8C8>C8<C8>C8<D8>D8<D8>D8<D8>D8<D8>D8<<A+8>A+8<A+8>A+8C8>C8<C8>C8<<A+8>A+8<A+8>A+8<A+8>A+8<A+8>A+8F8>F8<F8>F8<F8>F8<F8>F8<<A+8>A+8<A+8>A+8C8>C8<C8>C8<D8>D8<D8>D8<D8>D8<D8>D8<<A+8>A+8<A+8>A+8<A+8>A+8<A+8>A+8F8>F8<F8>F8<F8>F8<F8>F8<<A+8>A+8<A+8>A+8C8>C8<C8>C8<<A8>A8<A8>A8>E2<D8>D8<D8>D8<<A+8>A+8<A+8>A+8C8>C8<C8>C8<F8>F8<F8>F8<D8>D8<D8>D8<<A+8>A+8<A+8>A+8C8>C8<C8>C8<F8>F8<F8>F8<D8>D8<D8>D8<<A+8>A+8<A+8>A+8C8>C8<C8>C8<F8>F8<F8>F8<<A+8>A+8<A+8>A+8C8>C8<C8>C8<<A+8>A+8<A+8>>C8D2<D8>D8<D8>D8<<A+8>A+8<A+8>A+8C8>C8<C8>C8<F8>F8<F8>F8<D8>D8<D8>D8<<A+8>A+8<A+8>A+8C8>C8<C8>C8<F8>F8<F8>F8<D8>D8<D8>D8<<A+8>A+8<A+8>A+8C8>C8<C8>C8<F8>F8<F8>F8<<A+8>A+8<A+8>A+8C8>C8<C8>C8<<A+8>A+8<A+8>>C8D2D2<A+2>C2D2D2<A+2>C2<A2>D4D4D4D4<A+4A+4A+4A+4A+4A+4A+4A+4>C4C4<A4A4>D4D4D4D4<A+4A+4A+4A+4G4G4G4G4<C4C4>A4A4A+4A+4>C4C4<A4A4A4A4A+4A+4>C4C4<A4A4A4A4A+4A+4>C4C4D4D4D4D4<A+4A+4>C4C4<A4A4A4A4A+4A+4A+4A+4<F4F4F4F4>A+4A+4>C4C4D4D4D4D4<A+4A+4A+4A+4<F4F4F4F4>A+8A+4A+8A+4A+4A4A4>E2D2<A+2>C4C4F2D2<A+2>C4C4F2D2<A+2>C4C4F2<A+4A+4>C4C4<A+4>C4D2<E8>E8<E8>E8<C8>C8<C8>C8<D8>D8<D8>D8<G8>G8<G8>G8<E8>E8<E8>E8<C8>C8<C8>C8<D8>D8<D8>D8<G8>G8<G8>G8<E8>E8<E8>E8<C8>C8<C8>C8<D8>D8<D8>D8<G8>G8<G8>G8<C8>C8<C8>C8<D8>D8<D8>D8<C8>C8<D8>D8E2<C8>C8<C8>C8<D8>D8<D8>D8<E8>E8<E8>E8<E8>E8<E8>E8<C8>C8<C8>C8<D8>D8<D8>D8<E8>E8<E8>E8<E8>E8<E8>E8<C8>C8<C8>C8<D8>D8<D8>D8<E8>E8<E8>E8<E8>E8<E8>E8<C8>C8<C8>C8<D8>D8<D8>D8<C8>C8<D8>D8E2<C8>C8<C8>C8<D8>D8<D8>D8<E8>E8<E8>E8<E8>E8<E8>E8<C8>C8<C8>C8<D8>D8<D8>D8<E8>E8<E8>E8<E8>E8<E8>E8<C8>C8<C8>C8<D8>D8<D8>D8<E8>E8<E8>E8<E8>E8<E8>E8<C8>C8<C8>C8<D8>D8<D8>D8E8.E8.E8E4E8D16D+16E8.E8.E8E4<<E1&E8&E32

#NewTrack
T150V80
o3D8.D8.D8D8.D8.D8D8.D8.D8D8.D8.D8D8.D8.D8D8.D8.D8D4D4C4C4O1A+8>A+8<A+8>A+8C8>C8<C8>C8<D8>D8<D8>D8<D8>D8<D8>D8<<A+8>A+8<A+8>A+8C8>C8<C8>C8<D8>D8<D8>D8<D8>D8<D8>D8<<A+8>A+8<A+8>A+8C8>C8<C8>C8<D8>D8<D8>D8<D8>D8<D8>D8<<A+8>A+8<A+8>A+8C8>C8<C8>C8<D8>D8<D8>D8<D8>D8<D8>D8<<A+8>A+8<A+8>A+8C8>C8<C8>C8<D8>D8<D8>D8<D8>D8<D8>D8<<A+8>A+8<A+8>A+8C8>C8<C8>C8<D8>D8<D8>D8<D8>D8<D8>D8<<A+8>A+8<A+8>A+8C8>C8<C8>C8<D8>D8<D8>D8<D8>D8<D8>D8<<A+8>A+8<A+8>A+8C8>C8<C8>C8<D8>D8<D8>D8<D8>D8<D8>D8<D8>D8<D8>D8<D8>D8<D8>D8<<A+8>A+8<A+8>A+8C8>C8<C8>C8<D8>D8<D8>D8<D8>D8<D8>D8<<A+8>A+8<A+8>A+8C8>C8<C8>C8<D8>D8<D8>D8<D8>D8<D8>D8<<A+8>A+8<A+8>A+8C8>C8<C8>C8<D8>D8<D8>D8<D8>D8<D8>D8<<A+8>A+8<A+8>A+8C8>C8<C8>C8<<A+8>A+8<A+8>A+8<A+8>A+8<A+8>A+8F8>F8<F8>F8<F8>F8<F8>F8<<A+8>A+8<A+8>A+8C8>C8<C8>C8<D8>D8<D8>D8<D8>D8<D8>D8<<A+8>A+8<A+8>A+8<A+8>A+8<A+8>A+8F8>F8<F8>F8<F8>F8<F8>F8<<A+8>A+8<A+8>A+8C8>C8<C8>C8<<A8>A8<A8>A8>E2<D8>D8<D8>D8<<A+8>A+8<A+8>A+8C8>C8<C8>C8<F8>F8<F8>F8<D8>D8<D8>D8<<A+8>A+8<A+8>A+8C8>C8<C8>C8<F8>F8<F8>F8<D8>D8<D8>D8<<A+8>A+8<A+8>A+8C8>C8<C8>C8<F8>F8<F8>F8<<A+8>A+8<A+8>A+8C8>C8<C8>C8<<A+8>A+8<A+8>>C8D2<D8>D8<D8>D8<<A+8>A+8<A+8>A+8C8>C8<C8>C8<F8>F8<F8>F8<D8>D8<D8>D8<<A+8>A+8<A+8>A+8C8>C8<C8>C8<F8>F8<F8>F8<D8>D8<D8>D8<<A+8>A+8<A+8>A+8C8>C8<C8>C8<F8>F8<F8>F8<<A+8>A+8<A+8>A+8C8>C8<C8>C8<<A+8>A+8<A+8>>C8D2<<A+8>A+8<A+8>A+8C8>C8<C8>C8<D8>D8<D8>D8<D8>D8<D8>D8<<A+8>A+8<A+8>A+8C8>C8<C8>C8<D8>D8<D8>D8<D8>D8<D8>D8<<A+8>A+8<A+8>A+8C8>C8<C8>C8<D8>D8<D8>D8<D8>D8<D8>D8<<A+8>A+8<A+8>A+8C8>C8<C8>C8<D8>D8<D8>D8<D8>D8<D8>D8<<A+8>A+8<A+8>A+8C8>C8<C8>C8<D8>D8<D8>D8<D8>D8<D8>D8<<A+8>A+8<A+8>A+8C8>C8<C8>C8<D8>D8<D8>D8<D8>D8<D8>D8<<A+8>A+8<A+8>A+8C8>C8<C8>C8<D8>D8<D8>D8<D8>D8<D8>D8<<A+8>A+8<A+8>A+8C8>C8<C8>C8<D8>D8<D8>D8<D8>D8<D8>D8<D8>D8<D8>D8<D8>D8<D8>D8<<A+8>A+8<A+8>A+8C8>C8<C8>C8<D8>D8<D8>D8<D8>D8<D8>D8<<A+8>A+8<A+8>A+8C8>C8<C8>C8<D8>D8<D8>D8<D8>D8<D8>D8<<A+8>A+8<A+8>A+8C8>C8<C8>C8<D8>D8<D8>D8<D8>D8<D8>D8<<A+8>A+8<A+8>A+8C8>C8<C8>C8<<A+8>A+8<A+8>A+8<A+8>A+8<A+8>A+8F8>F8<F8>F8<F8>F8<F8>F8<<A+8>A+8<A+8>A+8C8>C8<C8>C8<D8>D8<D8>D8<D8>D8<D8>D8<<A+8>A+8<A+8>A+8<A+8>A+8<A+8>A+8F8>F8<F8>F8<F8>F8<F8>F8<<A+8>A+8<A+8>A+8C8>C8<C8>C8<<A8>A8<A8>A8>E2<D8>D8<D8>D8<<A+8>A+8<A+8>A+8C8>C8<C8>C8<F8>F8<F8>F8<D8>D8<D8>D8<<A+8>A+8<A+8>A+8C8>C8<C8>C8<F8>F8<F8>F8<D8>D8<D8>D8<<A+8>A+8<A+8>A+8C8>C8<C8>C8<F8>F8<F8>F8<<A+8>A+8<A+8>A+8C8>C8<C8>C8<<A+8>A+8<A+8>>C8D2<D8>D8<D8>D8<<A+8>A+8<A+8>A+8C8>C8<C8>C8<F8>F8<F8>F8<D8>D8<D8>D8<<A+8>A+8<A+8>A+8C8>C8<C8>C8<F8>F8<F8>F8<D8>D8<D8>D8<<A+8>A+8<A+8>A+8C8>C8<C8>C8<F8>F8<F8>F8<<A+8>A+8<A+8>A+8C8>C8<C8>C8<<A+8>A+8<A+8>>C8D2D2<A+2>C2D2D2<A+2>C2<A2>D4D4D4D4<A+4A+4A+4A+4A+4A+4A+4A+4>C4C4<A4A4>D4D4D4D4<A+4A+4A+4A+4G4G4G4G4<C4C4>A4A4A+4A+4>C4C4<A4A4A4A4A+4A+4>C4C4<A4A4A4A4A+4A+4>C4C4D4D4D4D4<A+4A+4>C4C4<A4A4A4A4A+4A+4A+4A+4<F4F4F4F4>A+4A+4>C4C4D4D4D4D4<A+4A+4A+4A+4<F4F4F4F4>A+8A+4A+8A+4A+4A4A4>E2D2<A+2>C4C4F2D2<A+2>C4C4F2D2<A+2>C4C4F2<A+4A+4>C4C4<A+4>C4D2<E8>E8<E8>E8<C8>C8<C8>C8<D8>D8<D8>D8<G8>G8<G8>G8<E8>E8<E8>E8<C8>C8<C8>C8<D8>D8<D8>D8<G8>G8<G8>G8<E8>E8<E8>E8<C8>C8<C8>C8<D8>D8<D8>D8<G8>G8<G8>G8<C8>C8<C8>C8<D8>D8<D8>D8<C8>C8<D8>D8E2<C8>C8<C8>C8<D8>D8<D8>D8<E8>E8<E8>E8<E8>E8<E8>E8<C8>C8<C8>C8<D8>D8<D8>D8<E8>E8<E8>E8<E8>E8<E8>E8<C8>C8<C8>C8<D8>D8<D8>D8<E8>E8<E8>E8<E8>E8<E8>E8<C8>C8<C8>C8<D8>D8<D8>D8<C8>C8<D8>D8E2<C8>C8<C8>C8<D8>D8<D8>D8<E8>E8<E8>E8<E8>E8<E8>E8<C8>C8<C8>C8<D8>D8<D8>D8<E8>E8<E8>E8<E8>E8<E8>E8<C8>C8<C8>C8<D8>D8<D8>D8<E8>E8<E8>E8<E8>E8<E8>E8<C8>C8<C8>C8<D8>D8<D8>D8E8.E8.E8E4E8D16D+16E8.E8.E8E4<<E1&E8&E32