#Title 小星星

#NewTrack
#Track 主旋律
t120v13 l4 o4
ccgg|aag2|ffee|ddc2|
ggff|eed2|ggff|eed2|
ccgg|aag2|ffee|ddc2|

#NewTrack
#Track 炫音
t120v11 l8 o3
cgegcgeg|cafacgeg|<b>gdgcgeg|<b>gfgcgeg|
cgeg<b>gdg|cgeg<b>gfg| cgeg<b>gdg|cgeg<b>gfd|
cgegcgeg|cafacgeg|<b>gdgcgeg|<b>gfg v8c2:e2:g2 |
