#NewTrack 音轨1
t54v14
R2.L16<<A>EA4<E>EG+4<A>EA2&A8<A>EA4<E>EG+4<A>EA2&A8<A>EA4<E>EG+4<A>EA2&A8<A>EA4<E>EG+4<A>EA4CG>C4<<G>GB4<A>EA4<E>EL8>E.L16E>E8.D+E8.D+E2&E8O2A>EA4<E>EG+4<A>EA2&A8<A>EA4<E>EG+4<A>EA4CG>C4<<G>GB4<A>EA4<E>EL8>E.L16E>E8.D+E8.D+E2&E8O2A>EA4<E>EG+4<A>EA2&A8<A>EA4<E>EG+4<A>EA>CCC<FA>C<A>C<AFA+>D<A+>D<A+F>E<A+>E<A+>E<FA>C<A>C<AFA>C<A>C<AEA>C<A>D<FG>E<G>E<G>FC8.FEDL8C<AB>C.L16FEDL8C<ABB1&L16B>>D+E8.D+E2O2A>EA4<E>EG+4<A>EA2&A8<A>EA4<E>EG+4<A>EA4CG>C4<<G>GB4<A>EA4<E>EL8>E.L16E>E8.D+E8.D+E2&E8O2A>EA4<E>EG+4<A>EA2&A8<A>EA4<E>EG+4<AAAAAAAAAAAAAAAAAAAAAAAAAAAAAADDDDDDD+D+D+D+D+D+EEEEEE<A>AAAAAAAAAAAAAAAAAAAAAAAA+A+A+A+A+A+A+A+A+A+A+A+A+A+A+A+A+A+BBBBBBL4>C.G+.<<AL8O4EE4EE4EE1&EL16<<A>EA4<E>EG+4<A>EA2&A8<A>EA4<E>EG+4<A>EA4CG>C4<<G>GB4<A>EA4<E>EL8>E.L16E>E8.D+E8.D+E2&E8O2A>EA4<E>EG+4<A>EA2&A8<A>EA4<E>EL4G+<<A8.&A32

#NewTrack 音轨2
t54v13
RL16>ED+ED+E<B>DC<A8.CEAB8.EG+B>C8.<E>ED+ED+E<B>DC<A8.CEAB8.E>C<BC4>ED+ED+E<B>DC<A8.CEAB8.EG+B>C8.<E>ED+ED+E<B>DC<A8.CEAB8.E>C<BA8.B>CDE8.<G>FED8.<F>EDC8.<E>DCL8<B.L16EL8>E.L16E>E8.<D+E8.D+ED+ED+E<B>DC<A8.CEAB8.EG+B>C8.<E>ED+ED+E<B>DC<A8.CEAB8.E>C<BA8.B>CDE8.<G>FED8.<F>EDC8.<E>DCL8<B.L16EL8>E.L16E>E8.<D+E8.D+ED+ED+E<B>DC<A8.CEAB8.EG+B>C8.<E>ED+ED+E<B>DC<A8.CEAB8.E>C<BA8.EFE32F64A64>C4F.E32E8D8A+.A32AGFEDC<A+8A.&A64A+64L32AGAA+>C4L16DD+E8.EF<A>C8.&C32<B64>C64D.L32<B>CG<G>G<A>G<B>GCGDGEG>C<BAGFEDGFDCG<G>G<A>G<B>GCGDGEG>C<BAGFEDGFDEFED+E<B>ED+E<B>ED+E8.L16<B>ED+L8E.L16<B>E8.D+E8.D+ED+E<B>DC<A8.CEAB8.EG+B>C8.<E>ED+ED+E<B>DC<A8.CEAB8.E>C<BA8.B>CDE8.<G>FED8.<F>EDC8.<E>DCL8<B.L16EL8>E.L16E>E8.<D+E8.D+ED+ED+E<B>DC<A8.CEAB8.EG+B>C8.<E>ED+ED+E<B>DC<A8.CEAB8.E>C<BL4A.E.F>E16F16FF8E.<FE16D16CL8CCEDL4C.E.F>E16F16FF8F.D+<F16D+16DD8DD8C.E.L32<A.>CE.A.>CE.D.C<B.A.>CE.A.>CE.D.C<B.A.>CE.A.>CE.D.C<B.A+.AG+.G.F+F.E.D+D.C+.C<B.A+.AG+.G.F+F.L16ED+E<B>DC<A8.CEAB8.EG+B>C8.<E>ED+ED+E<B>DC<A8.CEAB8.E>C<BA8.B>CDE8.<G>FED8.<F>EDC8.<E>DCL8<B.L16EL8>E.L16E>E8.<D+E8.D+ED+ED+E<B>DC<A8.CEAB8.EG+B>C8.<E>ED+ED+E<B>DC<A8.CEAB8.E>C<BC8.&C32
