#NewTrack
t120 o4v100
g8.g16 a4g4>c4 <b2g8.g16a4g4>d4c2<g8.g16>g4e4c4<b4a4&a2.>f8.f16e4c4d4c1p2.
g8.g16 a4g4>c4 <b2g8.g16a4g4>d4c2<g8.g16>g4e4c4<b4a4&a2.>f8.f16e4c4d4c1p2.

#NewTrack
#o4v100
#r8.r16 cee <g>ff <g>ff cee cee <fa&a &a2. g>c<b >e1p2.
