#!NUMFORMAT
#Title 眉间雪
#根据 http://www.jianpu.cn/pu/27/271335.htm 重新编写
#NewTrack
Tbca
L8
Oe
0>3| 1C <6>3  2C. <7|7C. >1C. <03 | L4 7 >12. <2D | 3B. L8 | >3<6>32C. 2&|
2 1C <7C. 0<7 | 1>1 L12 357 > 135 7>15& | 5B. L8 O4 35| 6C 6>321 <7>2| 1<7656C 05|
6C >32 2C 53| 3B 0C <35 | 6C 6>3 21 <7>2 | 1<7 65 6C 05 | 6C >32 2C <76|
6B 0C 12| 3C 5C 6532 | 1C 1<7 >1C 0<7 | 6C >32 2C 53 | 3B 0C 12| 3C 5C 6532|
1C 1<7 >1C 0<7 | >1C. 1 12 3| 5C 03 >1<7 65 | 6C 67>1<7 65| 5B 0335|
61 11 12 21 | 23 32 23 02 | 21 1<7 >1 2C 3 | 7>1 <76 55 05 | 6C. 6 6C 65|
5B >1<7 65 | 6C 67 >1<7 65 | 5B 0335 | 61111221 | 23322302|
21 1<7 >12 35 | 7>1 <76 55 05 | 6C 66 6C 65 | 5A | 0B. <35 |
6C 6>3 21 <7>2 | 1<7 65 6C 05 | 6C >32 2C 53 | 3B 0 <35 | 6C 6>3 21 <7>2 |
1<7 65 6C 05 | 6C >32 2C <76 | 6B 0B | >6C >3C 2<7 57 | 6A | L4 6 > 3 2 5 |
3 2D1E2E 3 1D<7D | 6B >2 <7 | >1B. L8 11| 4C 1C 2B | 3B. <12 | 

3C 5C 6532 | 1C 1<7 >1C 0<7 | 6C >32 2C 53 | 3B 0C 12| 3C 5C 6532|
1C 1<7 >1C 0<7 | >1C. 1 12 3| 5C 03 >1<7 65 | 6C 67>1<7 65| 5B 0335|
61 11 12 21 | 23 32 23 02 | 21 1<7 >1 2C 3 | 7>1 <76 55 05 | 6C. 6 6C 65|
5B >1<7 65 | 6C 67 >1<7 65 | 5B 0335 | 61111221 | 23322302|
21 1<7 >12 35 | 7>1 <76 55 05 | 6C 66 6C 65 | 5A | 0B. <65 |
6C 6>3 21 <7>2 | 1<7 65 6C 05 | 6C >32 2C 53 | 3B 0 <65 | 6C 6>3 21 <7>2 |
1<7 65 6C 05 | 6C >32 2C <76 | 6B 0C L8 Tbaa 5| 6C >32 2C <76&| 6 6&6B |