#Title 锦鲤抄
#Author 银临、云之泣 by南鲤

#NewTrack A
t160v13
>d2v10e4v13g2v10d4v13<a2. r4v10>c4d4 v13c2v10d4v13e2 v10<a4v13e2. r4v10a4>c4 v13d2v10e4v13g2 v10d4v13<a1& a4v10>c4 v13d8e2&e8d2 v10<a4v13e2. r4v10e8g8a8>c8 v13d2.<a2. a2. a2v10a4 v13>e4r2<e4 v10g+4b4v13g+2. r2v10a4 v13>e4v10e4e4v13e4 v10d4.c8v13d2. e4r4v10<a4 v13>d4v10d4d4v13d4 v10c4<b4v13b4.v10>c8 <b4v13g4r4v10a4 v13>e4v10e4e4v13e4 v10d4.c8v13d2. e4r4v10g4 v13d2.a4 v10g4e4v13d2. r2v10<a4 v13>e4v10e4e4v13e4 v10d4.c8v13d2. e4r4v10<a4 v13>d4v10d4d4v13d4 v10c4<b4v13b4.v10>c8 <b4v13g4r4v10a4 v13>e4v10e4e4v13e4 v10d4.c8v13d2. e4r4v10g4 v13d2.b4 v10>c4<b4v13a1& a2 <a2.>d4 v10e4g4v13e2. d4v10e4g4 v13e2.d4 v10e4g4v13<b2. b4.v10>c8<b4 v13a2.>d4 v10e4g4v13e2. d4v10e4g4 v13e2.d4 v10e4g4v13b2. b4.v10>c8<b4 v13a1& a4v10a8b8v13>c4.v10<b8 a4v13g4v10e4a4 v13g2v10d4v13e2 v10a8b8v13>c4.v10<b8 a4v13g4v10e4a4 v13g2v10b4v13a2 v10a8b8v13>c4.v10<b8 a4v13g4v10e4a4 v13g2v10d4v13e2 v10e4v13d4v10e4 g4v13e2r4 d4v10e4g4v13e2 r4d4v10e4 g4v13>c4v10<b4g4 v13a1& a2r1 r1 r1 r1 r2. v10>c8<b8g8e8v13d8r8 v10c8c8e8g8r1 r1 r1 r1 r2 v13g8e8v10d8c8<b8>c8v13e4 v10a4b4v13e2. d2v10g4 v13e1 v10a4>c4v13<b2. g2v10d4 v13e1& e4r4e2. d2v10g4 v13e1 v10a4>c4v13d2. <b2v10g4 v13a1& a4v10a8b8v13>c4.v10<b8 a4v13g4v10e4a4 v13g2v10d4v13e2 v10a8b8v13>c4.v10<b8 a4v13g4v10e4a4 v13g2v10b4v13a2 v10a8b8v13>c4.v10<b8 a4v13g4v10e4a4 v13g2v10d4v13e2 v10e4v13d4v10e4 g4v13e2. d4v10e4g4v13e2. d4v10e4 g4v13>c4v10<b4g4 v13a1& a2>c2. r2v10<a4 v13>e4v10e4e4v13e4 v10d4.c8v13d2. e4r4v10<a4 v13>d2v10d1 v13<c1& c2

#NewTrack B
t160v10
<f4v8>c4g4r2. v10<f2. r2. c4v8g4>d4r2. v10<c2. r2. f4v8>c4f4r2. v10<f2. r2. c4v8g4>d4r2. v10<c2. r2. f+4v8a4>d4v10e2. <f4v8a4 >d4v10e2r4 <e4v8g+4b4r2. v10e2. r2. f4v8>c4g4r2. v10<f4v8>d4 g4r2. v10<e4v8>d4g4r2. v10<<a4v8>e4 b4v10>c4r2 <f4v8>c4g4v10a4 r2<f4v8>d4 g4v10a4r2 <e4v8b4>d4v10g4 r2<<a4v8>e8g8 b4v10>c4r4v8e4 v10<f4v8>c4g4v10a4 r2<f4v8>d4 e4v10a4r2 <e4v8b4>d4v10g4 r2<<a4v8>e8g8 b4v10>c4r4v8e4 v10<f4v8>c4g4v10a4 r2<f4v8>d4 e4v10a4r2 <e4v8b4>d4v10g4 r2<<a4v8>e8g8 b4v10>c4v8d4e4 v10o1a2.r2. >>f8>c8v8d8g8 e4r2. v10<f8>d8v8e8a8e4r2. v10<e8b8v8>d8g8 e4r2. v10<<a8>g8v8b8>c8g8<g8v10>c4 v8<b8>c8d8e8v10<f8>c8v8d8g8 e4r2. v10<f8>d8v8e8a8e4r2. v10<e8b8v8>d8g8 e4r2. v10<<a8>g8v8b8>c8e4v10<a4 r4v8g4v10<f4v8>g8>c4 g8v10<<g4v8>b8>d4a8 v10<<e4v8>g8>d4g8v10<<a4 v8>g8b8>c4v10<<f4v8>g8>c4 g8v10<<g4v8>b8>d4a8 v10<<e4v8>g8>d4g8v10<<a4 v8>g8b8>c8d8v10<<f4v8>g8>c4 g8v10<<g4v8>b8>d4a8 v10<<e4v8>g8>d4g8v10<<a4 v8>g8b8>c8d8v10<<d8>d8v8f8a8 >e4v10<<e8>e8v8g8>d8g4 v10<<f4v8>c8f8a8>e8v10<<f+4 v8>d8a8>d4v10<<d4v8>f8a8 >e4v10<<e8>e8v8g8b8>d4 v10<<a8>e8v8a8b8>c8e8v10a2. <f4v8>c4 g4r2. v10<f4v8>d4g4r2. v10<e4v8>d4 g4r2. v10<<a4v8>e4b4v10>c4 r2<f4v8>c4 g4r2. v10<f4v8>d4g4r2. v10<e4v8>d4 g4r2. v10<<a4v8>e4b4v10>c4 r4v8<g4v10f4v8>c8r8 c8r8v10c8r8v8c8r8c8r8 v10<f4v8>c8r8c8r8v10c8r8 v8c8r8c8r8v10<e4v8>d8r8 d8r8v10d8r8v8d8r8d8r8 v10<<a4v8>>c8r8c8r8v10c8r8 v8c8r8<b8r8v10f4r4 v8>c8r8v10c8r8v8c8r8c8r8 v10<f4r4v8>c8r8v10c8r8 v8c8r8c8r8v10<e4r4 v8>d8r8v10d8r8v8d8r8d8r8 v10<<a4r4v8>>c8r8v10c8r8 v8c8r8<<g4v10f4v8>g8>c4 g8v10<<g4v8>b8>d4a8 v10<<e4v8>g8>d4g8v10<<a4 v8>g8b8>c4v10<<f4v8>g8>c4 g8v10<<g4v8>b8>d4a8 v10<<e4v8>g8>d4g8v10<<a4 v8>g8b8>c8d8v10<<f4v8>g8>c4 g8v10<<g4v8>b8>d4a8 v10<<e4v8>g8>d4g8v10<<a4 v8>g8b8>c8d8v10<<d8>d8v8f8a8 >e4v10<<e8>e8v8g8>d8g4 v10<<f4v8>c8f8a8>e8v10<<f+4 v8>d8a8>d4v10<<d4v8>f8a8 >e4v10<<e8>e8v8g8b8>d4 v10<<a8>e8v8a8b8>c8e8v10a2. a2. r2. f2.r2. f2. r2. e2.r2. <a1& a2