#Title 测试
#NewTrack
t112v80
l8o5
rdc<a>c4c<a>c4c<a>c<ag4
r>dc<a>c4c<a>c4cedcc4
r<ga>ee4ede4edegee
reee|ddddd4ce4d4.
rdc<a>c4c<a>c4c<a>c<ag4
rga>eg4geg4gedcc4
rdcdeddcd4c<a>dcc<a>c4cc&c1.
rggede<a4>deged4
rggede<g4>degdc4
rcdegagfgeedd4
rcdccdcd4e4gee4.
rggede<a4>deged4
rggede<g4>degdc4
rcdegagfgeedd4
<g>e4dd4c4.&c1
