#Title 青花瓷
#NewTrack
t56v80
l16o5
r2 r4 rdc<a|>c8c<a >c8c<a >c<ag8 r>dc<a|
#0--   21 6  1 1 6  1 1 6  1 65  0 21 6
>c8c<a >c8ce dcc8|
#1 1 6  1 13 211
r<ga>ee8ede8edegee
reee|ddddd8ce8d8.
rdc<a>c8c<a>c8c<a>c<ag8
rga>eg8geg8gedcc8
rdcdeddcd8c<a>dcc<a>c8cc&c2.
rggede<a8>deged4
rggede<g8>degdc4
rcdegagfgeedd4
rcdccdcd8e8gee8.
rggede<a8>deged4
rggede<g8>degdc4
rcdegagfgeedd8.
<g>e8dd8c8.&c2
