#Title 黑人抬棺
# https://www.xueqinji.com/18427.html
#NewTrack
t126v90
L4aa8>e8dc|<bb8b8>dc8<b8|aL8a>>c<b>c<b>c|<<a4a>>c<b>c<b>c|
L4<<aa8>e8dc|<bb8b8>dc8<b8|aL8a>>c<b>c<b>c|<<a4a>>c<b>c<b>c|
L4<<aa8>e8dc|<bb8b8>dc8<b8|aL8a>>c<b>c<b>c|<<a4a>>c<b>c<b>c|
<cccceeee|ddddgggg|aaaaaaaa|aaaadc<bg|

#NewTrack
t126v80
L1<<f:>c:f|<g:>d:g|<a:>e:a|<a:>e:a|
<f:>c:f|<g:>d:g|<a:>e:a|<a:>e:a|
<f:>c:f|<g:>d:g|<a:>e:a|<a:>e:a|
<f:>c:f|<g:>d:g|<a:>e:a|<a:>e:a|
